%
O01001
(Using high feed G1 F5000. instead of G0.)
(T5 D=4. CR=0. - ZMIN=-3.49 - flat end mill)
N10 G90 G94 G17
N15 G21
N20 G53 G0 Z0.

(Adaptive1)
N25 T5 M6
N30 S5000 M3
N35 G54
N40 M8
N45 G0 X-3.659 Y-2.867
N50 G43 Z15. H5
N55 G0 Z5.
N60 Z-2.69
N65 G1 Z-3.09 F500.
N70 X-3.652 Y-2.863 Z-3.168
N75 X-3.632 Y-2.852 Z-3.243
N80 X-3.6 Y-2.834 Z-3.312
N85 X-3.556 Y-2.811 Z-3.373
N90 X-3.503 Y-2.782 Z-3.423
N95 X-3.442 Y-2.749 Z-3.46
N100 X-3.376 Y-2.713 Z-3.482
N105 X-3.308 Y-2.675 Z-3.49
N110 G3 X-1.5 Y-1.422 I-4.881 J8.97
N115 G1 X-1.43 Y-1.357 F1000.
N120 X-1.315 Y-1.194
N125 X-1.192 Y-0.985
N130 X-1.061 Y-0.715
N135 X-0.922 Y-0.361
N140 X-0.778 Y0.119
N145 X-0.629 Y0.814
N150 X-0.523 Y1.616
N155 X-0.461 Y2.422
N160 X-0.426 Y3.229
N165 X-0.405 Y4.037
N170 X-0.393 Y4.845
N175 X-0.386 Y5.653
N180 X-0.382 Y6.462
N185 X-0.379 Y7.27
N190 X-0.377 Y8.886
N195 X-0.376 Y11.71
N200 X-0.38 Y11.796
N205 X-0.392 Y11.882
N210 X-0.412 Y11.966
N215 X-0.742 Y13.127
N220 X-0.841 Y13.494
N225 X-0.876 Y13.677
N230 X-0.928 Y14.044
N235 X-0.952 Y14.228
N240 X-1.157 Y15.88
N245 X-1.18 Y16.1
N250 X-1.212 Y16.43
N255 X-1.222 Y16.614
N260 X-1.208 Y17.165
N265 X-1.157 Y18.816
N270 X-1.149 Y19.
N275 X-1.12 Y19.367
N280 X-1.104 Y19.551
N285 X-0.727 Y21.569
N290 X-0.618 Y22.37
N295 X-0.517 Y23.172
N300 X-0.459 Y23.978
N305 X-0.425 Y24.786
N310 X-0.405 Y25.594
N315 X-0.394 Y26.402
N320 X-0.387 Y27.21
N325 X-0.383 Y28.018
N330 X-0.379 Y29.635
N335 X-0.378 Y32.868
N340 X-0.381 Y71.663
N345 X-0.384 Y121.774
N350 X-0.386 Y139.96
N355 X-0.393 Y140.074
N360 X-0.414 Y140.187
N365 X-0.449 Y140.296
N370 X-0.528 Y140.501
N375 X-0.595 Y140.685
N380 X-0.718 Y141.052
N385 X-0.766 Y141.235
N390 X-1.251 Y143.438
N395 X-1.288 Y143.621
N400 X-1.335 Y143.988
N405 X-1.372 Y144.539
N410 X-1.467 Y146.007
N415 X-1.498 Y146.558
N420 X-1.486 Y146.741
N425 X-1.462 Y147.108
N430 X-1.43 Y147.475
N435 X-1.302 Y148.944
N440 X-1.26 Y149.311
N445 X-1.239 Y149.494
N450 X-1.202 Y149.678
N455 X-1.069 Y150.228
N460 X-0.813 Y151.28
N465 X-0.661 Y152.074
N470 X-0.546 Y152.874
N475 X-0.48 Y153.679
N480 X-0.442 Y154.487
N485 X-0.419 Y155.295
N490 X-0.406 Y156.103
N495 X-0.398 Y156.911
N500 X-0.394 Y157.719
N505 X-0.391 Y158.527
N510 X-0.389 Y160.144
N515 X-0.388 Y161.76
N520 X-0.383 Y161.962
N525 X-0.336 Y162.159
N530 X-0.158 Y162.521
N535 X0.383 Y163.122
N540 X1.092 Y163.51
N545 X1.864 Y163.75
N550 X2.659 Y163.896
N555 X3.462 Y163.984
N560 X4.269 Y164.036
N565 X5.077 Y164.067
N570 X5.885 Y164.085
N575 X6.693 Y164.096
N580 X7.501 Y164.102
N585 X8.309 Y164.106
N590 X9.926 Y164.109
N595 X10.808 Y164.11
N600 X10.918 Y164.117
N605 X11.026 Y164.136
N610 X11.131 Y164.168
N615 X11.156 Y164.177
N620 X11.308 Y164.227
N625 X13.144 Y164.731
N630 X13.512 Y164.83
N635 X13.695 Y164.874
N640 X14.246 Y164.953
N645 X15.899 Y165.146
N650 X16.083 Y165.167
N655 X16.634 Y165.219
N660 X17.185 Y165.203
N665 X19.021 Y165.138
N670 X19.205 Y165.125
N675 X19.572 Y165.097
N680 X20.307 Y164.958
N685 X21.96 Y164.644
N690 X22.143 Y164.6
N695 X22.327 Y164.548
N700 X23.043 Y164.386
N705 X23.843 Y164.271
N710 X24.648 Y164.205
N715 X25.455 Y164.166
N720 X26.263 Y164.144
N725 X27.071 Y164.131
N730 X27.88 Y164.123
N735 X28.688 Y164.119
N740 X29.496 Y164.116
N745 X31.113 Y164.114
N750 X36.77 Y164.113
N755 X72.333 Y164.114
N760 X122.443 Y164.117
N765 X172.554 Y164.12
N770 X191.75 Y164.121
N775 X191.837 Y164.125
N780 X191.923 Y164.137
N785 X192.008 Y164.157
N790 X192.205 Y164.214
N795 X192.389 Y164.265
N800 X192.94 Y164.371
N805 X193.491 Y164.441
N810 X195.327 Y164.67
N815 X195.511 Y164.676
N820 X195.878 Y164.681
N825 X196.062 Y164.678
N830 X197.899 Y164.619
N835 X198.266 Y164.606
N840 X198.45 Y164.589
N845 X198.817 Y164.531
N850 X199. Y164.5
N855 X199.184 Y164.465
N860 X199.985 Y164.354
N865 X200.787 Y164.257
N870 X201.593 Y164.2
N875 X202.401 Y164.168
N880 X203.209 Y164.149
N885 X204.017 Y164.137
N890 X204.825 Y164.131
N895 X205.634 Y164.127
N900 X207.25 Y164.123
N905 X210.483 Y164.122
N910 X211.897
N915 X212.097 Y164.094
N920 X212.476 Y163.953
N925 X212.796 Y163.705
N930 X213.327 Y163.096
N935 X213.664 Y162.362
N940 X213.872 Y161.581
N945 X213.998 Y160.782
N950 X214.073 Y159.977
N955 X214.117 Y159.17
N960 X214.144 Y158.363
N965 X214.159 Y157.555
N970 X214.168 Y156.746
N975 X214.173 Y155.938
N980 X214.176 Y155.13
N985 X214.179 Y153.513
N990 X214.18 Y152.129
N995 X214.184 Y152.039
N1000 X214.198 Y151.949
N1005 X214.219 Y151.861
N1010 X214.71 Y150.228
N1015 X214.757 Y150.045
N1020 X214.835 Y149.678
N1025 X214.869 Y149.494
N1030 X215.171 Y147.292
N1035 X215.192 Y147.108
N1040 X215.208 Y146.558
N1045 X215.168 Y144.539
N1050 X215.16 Y144.172
N1055 X215.144 Y143.988
N1060 X215.118 Y143.805
N1065 X215.054 Y143.438
N1070 X214.76 Y141.786
N1075 X214.657 Y141.235
N1080 X214.611 Y141.06
N1085 X214.504 Y140.64
N1090 X214.367 Y139.843
N1095 X214.289 Y139.039
N1100 X214.243 Y138.232
N1105 X214.216 Y137.424
N1110 X214.2 Y136.616
N1115 X214.191 Y135.808
N1120 X214.186 Y135.
N1125 X214.182 Y134.191
N1130 X214.179 Y132.575
N1135 X214.177 Y128.534
N1140 X214.172 Y90.547
N1145 X214.165 Y40.436
N1150 X214.162 Y24.024
N1155 X214.169 Y23.916
N1160 X214.188 Y23.809
N1165 X214.219 Y23.705
N1170 X214.529 Y22.854
N1175 X214.611 Y22.598
N1180 X214.639 Y22.487
N1185 X214.752 Y21.936
N1190 X215.115 Y20.101
N1195 X215.146 Y19.918
N1200 X215.191 Y19.551
N1205 X215.29 Y17.165
N1210 X215.284 Y16.981
N1215 X215.271 Y16.614
N1220 X215.254 Y16.43
N1225 X215.005 Y14.228
N1230 X214.978 Y14.08
N1235 X214.889 Y13.677
N1240 X214.843 Y13.494
N1245 X214.643 Y12.76
N1250 X214.469 Y11.97
N1255 X214.34 Y11.172
N1260 X214.265 Y10.368
N1265 X214.222 Y9.561
N1270 X214.196 Y8.753
N1275 X214.181 Y7.945
N1280 X214.172 Y7.137
N1285 X214.167 Y6.328
N1290 X214.164 Y5.52
N1295 X214.161 Y3.904
N1300 X214.16 Y1.883
N1305 X214.131 Y1.683
N1310 X213.989 Y1.305
N1315 X213.741 Y0.985
N1320 X213.131 Y0.455
N1325 X212.397 Y0.117
N1330 X211.616 Y-0.09
N1335 X210.817 Y-0.216
N1340 X210.013 Y-0.291
N1345 X209.206 Y-0.335
N1350 X208.398 Y-0.362
N1355 X207.59 Y-0.377
N1360 X206.782 Y-0.386
N1365 X205.973 Y-0.391
N1370 X205.165 Y-0.395
N1375 X203.549 Y-0.397
N1380 X202.346 Y-0.398
N1385 X202.241 Y-0.404
N1390 X202.137 Y-0.422
N1395 X202.035 Y-0.452
N1400 X201.939 Y-0.484
N1405 X199.551 Y-1.036
N1410 X199. Y-1.115
N1415 X198.817 Y-1.131
N1420 X196.613 Y-1.292
N1425 X196.429
N1430 X196.062 Y-1.277
N1435 X195.878 Y-1.266
N1440 X194.226 Y-1.132
N1445 X193.675 Y-1.084
N1450 X193.491 Y-1.058
N1455 X193.124 Y-0.978
N1460 X192.94 Y-0.938
N1465 X192.456 Y-0.822
N1470 X191.662 Y-0.674
N1475 X190.862 Y-0.558
N1480 X190.056 Y-0.492
N1485 X189.249 Y-0.453
N1490 X188.441 Y-0.43
N1495 X187.633 Y-0.417
N1500 X186.825 Y-0.409
N1505 X186.016 Y-0.405
N1510 X185.208 Y-0.402
N1515 X183.592 Y-0.399
N1520 X177.934 Y-0.398
N1525 X142.372 Y-0.396
N1530 X92.261 Y-0.393
N1535 X42.15 Y-0.391
N1540 X24.088 Y-0.39
N1545 X23.989 Y-0.395
N1550 X23.892 Y-0.41
N1555 X23.796 Y-0.436
N1560 X23.245 Y-0.614
N1565 X21.409 Y-1.077
N1570 X20.858 Y-1.212
N1575 X20.674 Y-1.236
N1580 X20.307 Y-1.279
N1585 X20.123 Y-1.297
N1590 X18.47 Y-1.451
N1595 X18.103 Y-1.478
N1600 X17.919 Y-1.492
N1605 X17.736
N1610 X17.185 Y-1.462
N1615 X15.532 Y-1.36
N1620 X15.348 Y-1.346
N1625 X14.981 Y-1.309
N1630 X14.797 Y-1.284
N1635 X13.512 Y-1.003
N1640 X12.593 Y-0.802
N1645 X12.41 Y-0.759
N1650 X12.059 Y-0.677
N1655 X11.26 Y-0.556
N1660 X10.454 Y-0.487
N1665 X9.647 Y-0.446
N1670 X8.839 Y-0.422
N1675 X8.031 Y-0.408
N1680 X7.223 Y-0.4
N1685 X6.415 Y-0.395
N1690 X5.606 Y-0.393
N1695 X3.99 Y-0.39
N1700 X3.182 Y-0.389
N1705 X2.982 Y-0.357
N1710 X2.794 Y-0.283
N1715 X2.459 Y-0.058
N1720 X1.933 Y0.556
N1725 X1.621 Y1.302
N1730 X1.442 Y2.09
N1735 X1.342 Y2.892
N1740 X1.287 Y3.698
N1745 X1.257 Y4.506
N1750 X1.241 Y5.314
N1755 X1.233 Y6.122
N1760 X1.228 Y6.93
N1765 X1.226 Y7.778
N1770 X1.214 Y7.925
N1775 X1.18 Y8.068
N1780 X1.123 Y8.204
N1785 X1.045 Y8.355
N1790 X0.031 Y10.557
N1795 X-0.041 Y10.741
N1800 X-0.11 Y10.924
N1805 X-0.168 Y11.108
N1810 X-0.412 Y11.966
N1815 X-0.627 Y12.721
N1820 X-0.742 Y13.127
N1825 X-0.841 Y13.494
N1830 X-0.876 Y13.677
N1835 X-0.928 Y14.044
N1840 X-0.952 Y14.228
N1845 X-1.157 Y15.88
N1850 X-1.177 Y16.063
N1855 X-1.212 Y16.43
N1860 X-1.222 Y16.614
N1865 X-1.208 Y17.165
N1870 X-1.157 Y18.816
N1875 X-1.149 Y19.
N1880 X-1.12 Y19.367
N1885 X-1.104 Y19.551
N1890 X-0.871 Y20.797
N1895 X-0.727 Y21.569 F500.
N1900 X-0.658 Y21.936 F1000.
N1905 X-0.608 Y22.12
N1910 X-0.507 Y22.487
N1915 X-0.445 Y22.671
N1920 X0.137 Y24.322
N1925 X0.338 Y24.873
N1930 X0.42 Y25.057
N1935 X0.472 Y25.161
N1940 X0.542 Y25.308
N1945 X0.684 Y25.682
N1950 X0.832 Y26.192
N1955 X0.985 Y26.937
N1960 X1.083 Y27.739
N1965 X1.14 Y28.545
N1970 X1.174 Y29.353
N1975 X1.194 Y30.161
N1980 X1.205 Y30.969
N1985 X1.212 Y31.777
N1990 X1.216 Y32.586
N1995 X1.22 Y34.202
N2000 X1.222 Y37.435
N2005 X1.219 Y75.422
N2010 X1.215 Y125.533
N2015 X1.214 Y136.494
N2020 X1.2 Y136.655
N2025 X1.159 Y136.812
N2030 X1.091 Y136.958
N2035 X0.428 Y138.115
N2040 X0.34 Y138.299
N2045 X0.185 Y138.666
N2050 X0.105 Y138.863
N2055 X-0.449 Y140.296
N2060 X-0.528 Y140.501
N2065 X-0.595 Y140.685
N2070 X-0.713 Y141.036
N2075 X-0.718 Y141.052
N2080 X-0.766 Y141.235
N2085 X-1.251 Y143.438
N2090 X-1.288 Y143.621
N2095 X-1.335 Y143.988
N2100 X-1.348 Y144.172
N2105 X-1.467 Y146.007
N2110 X-1.498 Y146.558
N2115 X-1.486 Y146.741
N2120 X-1.462 Y147.108
N2125 X-1.446 Y147.292
N2130 X-1.302 Y148.944
N2135 X-1.281 Y149.127
N2140 X-1.239 Y149.494
N2145 X-1.202 Y149.678
N2150 X-1.114 Y150.045
N2155 X-1.069 Y150.228
N2160 X-0.999 Y150.517
N2165 X-0.813 Y151.28 F500.
N2170 X-0.667 Y151.88 F1000.
N2175 X-0.629 Y152.013
N2180 X-0.491 Y152.431
N2185 X-0.446 Y152.562
N2190 X0.333 Y154.45
N2195 X0.409 Y154.633
N2200 X0.472 Y154.784
N2205 X0.607 Y155.103
N2210 X0.753 Y155.544
N2215 X0.904 Y156.164
N2220 X1.031 Y156.963
N2225 X1.105 Y157.767
N2230 X1.149 Y158.574
N2235 X1.175 Y159.382
N2240 X1.183 Y159.786
N2245 X1.245 Y160.186
N2250 X1.409 Y160.555
N2255 X1.884 Y161.209
N2260 X2.548 Y161.669
N2265 X3.296 Y161.976
N2270 X4.079 Y162.175
N2275 X4.878 Y162.302
N2280 X5.682 Y162.382
N2285 X6.489 Y162.431
N2290 X7.326 Y162.463
N2295 X7.496 Y162.482
N2300 X7.659 Y162.532
N2305 X7.81 Y162.611
N2310 X8.249 Y162.892
N2315 X8.737 Y163.131
N2320 X8.92 Y163.217
N2325 X10.66 Y163.994
N2330 X11.131 Y164.168
N2335 X11.156 Y164.177
N2340 X11.308 Y164.227
N2345 X11.886 Y164.386
N2350 X12.961 Y164.681
N2355 X13.133 Y164.728
N2360 X13.512 Y164.83
N2365 X13.695 Y164.874
N2370 X14.063 Y164.927
N2375 X14.246 Y164.953
N2380 X15.899 Y165.146
N2385 X16.083 Y165.167
N2390 X16.634 Y165.219
N2395 X16.817 Y165.214
N2400 X17.185 Y165.203
N2405 X17.368 Y165.197
N2410 X19.021 Y165.138
N2415 X19.205 Y165.125
N2420 X19.572 Y165.097
N2425 X19.582 Y165.095
N2430 X19.756 Y165.062
N2435 X21.561 Y164.72
N2440 X21.96 Y164.644 F500.
N2445 X22.143 Y164.6
N2450 X22.327 Y164.548
N2455 X22.511 Y164.496 F1000.
N2460 X24.451 Y163.81
N2465 X24.928 Y163.627
N2470 X25.082 Y163.56
N2475 X25.449 Y163.365
N2480 X25.822 Y163.189
N2485 X26.204 Y163.046
N2490 X26.723 Y162.897
N2495 X27.486 Y162.744
N2500 X28.289 Y162.649
N2505 X29.095 Y162.593
N2510 X29.903 Y162.56
N2515 X30.711 Y162.541
N2520 X31.519 Y162.529
N2525 X32.327 Y162.522
N2530 X33.135 Y162.518
N2535 X34.752 Y162.514
N2540 X37.985 Y162.513
N2545 X75.972 Y162.515
N2550 X126.082 Y162.517
N2555 X176.193 Y162.52
N2560 X187.441
N2565 X187.576 Y162.53
N2570 X187.709 Y162.56
N2575 X187.835 Y162.608
N2580 X189.267 Y163.275
N2585 X189.451 Y163.357
N2590 X189.818 Y163.509
N2595 X190.002 Y163.579
N2600 X192.008 Y164.157
N2605 G3 X192.219 Y164.304 I-0.111 J0.384
N2610 G2 X192.508 Y164.465 I0.322 J-0.238
N2615 G1 X192.69 Y164.48
N2620 X198.188 Y164.922
N2625 G2 X198.485 Y164.823 I0.032 J-0.399
N2630 G1 X198.491 Y164.817
N2635 G3 X199.184 Y164.465 I1.042 J1.191 F500.
N2640 G1 X200.7 Y164.177 F1000.
N2645 X200.837 Y164.15
N2650 X201.204 Y164.074
N2655 X201.388 Y164.032
N2660 X201.755 Y163.907
N2665 X202.674 Y163.579
N2670 X203.592 Y163.251
N2675 X203.775 Y163.184
N2680 X203.876 Y163.14
N2685 X204.122 Y163.048
N2690 X204.637 Y162.902
N2695 X205.395 Y162.75
N2700 X206.197 Y162.655
N2705 X207.004 Y162.6
N2710 X207.811 Y162.568
N2715 X208.619 Y162.549
N2720 X209.428 Y162.538
N2725 X209.832 Y162.534
N2730 X210.231 Y162.472
N2735 X210.602 Y162.311
N2740 X211.259 Y161.841
N2745 X211.725 Y161.181
N2750 X212.037 Y160.435
N2755 X212.239 Y159.652
N2760 X212.368 Y158.854
N2765 X212.449 Y158.05
N2770 X212.5 Y157.244
N2775 X212.531 Y156.436
N2780 X212.546 Y155.798
N2785 X212.562 Y155.646
N2790 X212.603 Y155.498
N2795 X212.668 Y155.359
N2800 X212.768 Y155.184
N2805 X212.858 Y155.
N2810 X213.509 Y153.646
N2815 X213.74 Y153.165
N2820 X213.913 Y152.798
N2825 X213.987 Y152.614
N2830 X214.047 Y152.431
N2835 X214.219 Y151.861
N2840 X214.445 Y151.109
N2845 X214.71 Y150.228
N2850 X214.757 Y150.045
N2855 X214.835 Y149.678
N2860 X214.869 Y149.494
N2865 X215.171 Y147.292
N2870 X215.192 Y147.108
N2875 X215.203 Y146.741
N2880 X215.208 Y146.558
N2885 X215.172 Y144.722
N2890 X215.16 Y144.172
N2895 X215.144 Y143.988
N2900 X215.118 Y143.805
N2905 X215.086 Y143.621
N2910 X214.768 Y141.829
N2915 X214.76 Y141.786 F500.
N2920 X214.726 Y141.602
N2925 X214.657 Y141.235
N2930 X214.611 Y141.06
N2935 X214.552 Y140.868 F1000.
N2940 X214.49 Y140.685
N2945 X213.858 Y138.849
N2950 X213.789 Y138.666
N2955 X213.642 Y138.299
N2960 X213.559 Y138.115
N2965 X213.462 Y137.932
N2970 X213.25 Y137.479
N2975 X213.108 Y137.096
N2980 X212.959 Y136.572
N2985 X212.806 Y135.801
N2990 X212.712 Y134.998
N2995 X212.657 Y134.192
N3000 X212.625 Y133.384
N3005 X212.606 Y132.576
N3010 X212.594 Y131.768
N3015 X212.587 Y130.96
N3020 X212.583 Y130.152
N3025 X212.579 Y128.535
N3030 X212.577 Y125.302
N3035 X212.571 Y87.315
N3040 X212.564 Y37.205
N3045 X212.563 Y27.501
N3050 X212.576 Y27.346
N3055 X212.615 Y27.194
N3060 X212.679 Y27.051
N3065 X213.509 Y25.542
N3070 X213.562 Y25.424
N3075 X213.719 Y25.057
N3080 X213.793 Y24.873
N3085 X214.219 Y23.705
N3090 X214.488 Y22.967
N3095 X214.529 Y22.854
N3100 X214.588 Y22.671
N3105 X214.611 Y22.598
N3110 X214.639 Y22.487
N3115 X214.752 Y21.936
N3120 X215.115 Y20.101
N3125 X215.146 Y19.918
N3130 X215.169 Y19.734
N3135 X215.191 Y19.551
N3140 X215.29 Y17.165
N3145 X215.284 Y16.981
N3150 X215.271 Y16.614
N3155 X215.254 Y16.43
N3160 X215.005 Y14.228
N3165 X214.978 Y14.08
N3170 X214.889 Y13.677
N3175 X214.849 Y13.518
N3180 X214.843 Y13.494 F500.
N3185 X214.643 Y12.76
N3190 X214.392 Y11.842 F1000.
N3195 X214.34 Y11.658
N3200 X214.234 Y11.291
N3205 X214.17 Y11.108
N3210 X213.931 Y10.557
N3215 X213.325 Y9.201
N3220 X213.114 Y8.658
N3225 X212.966 Y8.161
N3230 X212.813 Y7.443
N3235 X212.709 Y6.641
N3240 X212.648 Y5.836
N3245 X212.612 Y5.028
N3250 X212.591 Y4.22
N3255 X212.584 Y3.816
N3260 X212.487 Y3.424
N3265 X212.299 Y3.066
N3270 X211.789 Y2.439
N3275 X211.111 Y2.
N3280 X210.357 Y1.708
N3285 X209.571 Y1.519
N3290 X208.772 Y1.399
N3295 X207.967 Y1.323
N3300 X207.161 Y1.276
N3305 X206.353 Y1.247
N3310 X206.063 Y1.241
N3315 X205.905 Y1.224
N3320 X205.751 Y1.18
N3325 X205.608 Y1.111
N3330 X205.061 Y0.787
N3335 X204.877 Y0.688
N3340 X204.375 Y0.463
N3345 X204.143 Y0.369
N3350 X202.544 Y-0.271
N3355 X202.035 Y-0.452
N3360 X202.026 Y-0.455
N3365 X201.939 Y-0.484
N3370 X201.273 Y-0.638
N3375 X199.551 Y-1.036
N3380 X199.368 Y-1.063
N3385 X199. Y-1.115
N3390 X198.817 Y-1.131
N3395 X196.613 Y-1.292
N3400 X196.429
N3405 X196.062 Y-1.277
N3410 X195.878 Y-1.266
N3415 X194.226 Y-1.132
N3420 X194.042 Y-1.117
N3425 X193.675 Y-1.084
N3430 X193.491 Y-1.058
N3435 X193.221 Y-1.
N3440 X193.124 Y-0.978 F500.
N3445 X192.94 Y-0.938
N3450 X192.456 Y-0.822
N3455 X191.287 Y-0.543 F1000.
N3460 X191.103 Y-0.497
N3465 X190.736 Y-0.395
N3470 X190.552 Y-0.342
N3475 X189.634 Y0.033
N3480 X188.532 Y0.484
N3485 X187.902 Y0.706
N3490 X187.34 Y0.855
N3495 X186.545 Y0.999
N3500 X185.741 Y1.082
N3505 X184.934 Y1.131
N3510 X184.126 Y1.16
N3515 X183.318 Y1.177
N3520 X182.51 Y1.187
N3525 X181.702 Y1.193
N3530 X180.894 Y1.197
N3535 X179.277 Y1.2
N3540 X176.044 Y1.202
N3545 X138.057 Y1.204
N3550 X87.947 Y1.207
N3555 X37.836 Y1.21
N3560 X27.501
N3565 X27.33 Y1.194
N3570 X27.164 Y1.147
N3575 X27.01 Y1.07
N3580 X26.735 Y0.902
N3585 X26.309 Y0.646
N3590 X26.184 Y0.579
N3595 X25.816 Y0.417
N3600 X23.98 Y-0.361
N3605 X23.796 Y-0.436
N3610 X23.245 Y-0.614
N3615 X23.045 Y-0.665
N3620 X21.409 Y-1.077
N3625 X20.858 Y-1.212
N3630 X20.674 Y-1.236
N3635 X20.307 Y-1.279
N3640 X20.123 Y-1.297
N3645 X18.47 Y-1.451
N3650 X18.287 Y-1.465
N3655 X17.919 Y-1.492
N3660 X17.736
N3665 X17.368 Y-1.472
N3670 X17.185 Y-1.462
N3675 X15.532 Y-1.36
N3680 X15.348 Y-1.346
N3685 X14.981 Y-1.309
N3690 X14.797 Y-1.284
N3695 X14.246 Y-1.164
N3700 X13.176 Y-0.93
N3705 X12.593 Y-0.802 F500.
N3710 X12.41 Y-0.759
N3715 X11.859 Y-0.591 F1000.
N3720 X10.022 Y0.121
N3725 X9.471 Y0.343
N3730 X9.288 Y0.437
N3735 X9.154 Y0.506
N3740 X8.795 Y0.647
N3745 X8.311 Y0.795
N3750 X7.616 Y0.947
N3755 X6.815 Y1.056
N3760 X6.009 Y1.119
N3765 X5.202 Y1.157
N3770 X4.819 Y1.287
N3775 X4.479 Y1.505
N3780 X3.891 Y2.06
N3785 X3.495 Y2.764
N3790 X3.238 Y3.531
N3795 X3.077 Y4.323
N3800 X2.977 Y5.125
N3805 X2.971 Y5.208
N3810 X2.937 Y5.395
N3815 X2.866 Y5.572
N3820 X2.761 Y5.73
N3825 G3 X2.102 Y5.641 I-0.3 J-0.265
N3830 G1 X2.067 Y5.571 Z-3.482
N3835 X2.034 Y5.504 Z-3.46
N3840 X2.004 Y5.441 Z-3.423
N3845 X1.977 Y5.387 Z-3.373
N3850 X1.956 Y5.342 Z-3.312
N3855 X1.939 Y5.309 Z-3.243
N3860 X1.929 Y5.289 Z-3.168
N3865 X1.926 Y5.282 Z-3.09
N3870 G0 Z5.
N3875 G1 X10.026 Y-0.479 F5000.
N3880 G0 Z-2.69
N3885 G1 Z-3.09 F500.
N3890 X10.023 Y-0.472 Z-3.168
N3895 X10.011 Y-0.453 Z-3.243
N3900 X9.993 Y-0.42 Z-3.312
N3905 X9.969 Y-0.377 Z-3.373
N3910 X9.939 Y-0.324 Z-3.423
N3915 X9.905 Y-0.264 Z-3.46
N3920 X9.869 Y-0.198 Z-3.482
N3925 X9.83 Y-0.13 Z-3.49
N3930 G3 X9.288 Y0.437 I-1.38 J-0.775
N3935 G1 X7.268 Y1.603 F1000.
N3940 X7.084 Y1.71
N3945 X7.028 Y1.747
N3950 X6.533 Y2.124
N3955 X6.312 Y2.298
N3960 X4.944 Y3.399
N3965 X4.88 Y3.453
N3970 X4.696 Y3.611
N3975 X4.545 Y3.766
N3980 X4.329 Y3.998
N3985 X2.86 Y5.61
N3990 X2.716 Y5.785
N3995 X2.676 Y5.842
N4000 X2.309 Y6.389
N4005 X1.493 Y7.621
N4010 X1.14 Y8.171
N4015 X1.123 Y8.204
N4020 G3 X0.46 Y8.257 I-0.349 J-0.195
N4025 G1 X0.411 Y8.195 Z-3.482
N4030 X0.365 Y8.136 Z-3.46
N4035 X0.322 Y8.082 Z-3.423
N4040 X0.284 Y8.035 Z-3.373
N4045 X0.254 Y7.995 Z-3.312
N4050 X0.231 Y7.966 Z-3.243
N4055 X0.217 Y7.949 Z-3.168
N4060 X0.212 Y7.943 Z-3.09
N4065 G0 Z5.
N4070 G1 X-0.422 Y24.395 F5000.
N4075 G0 Z-2.69
N4080 G1 Z-3.09 F500.
N4085 X-0.415 Y24.399 Z-3.168
N4090 X-0.396 Y24.411 Z-3.243
N4095 X-0.364 Y24.43 Z-3.312
N4100 X-0.322 Y24.456 Z-3.373
N4105 X-0.27 Y24.487 Z-3.423
N4110 X-0.21 Y24.523 Z-3.46
N4115 X-0.146 Y24.561 Z-3.482
N4120 X-0.079 Y24.602 Z-3.49
N4125 G3 X0.472 Y25.161 I-0.816 J1.356
N4130 G1 X1.6 Y27.259 F1000.
N4135 X1.71 Y27.443
N4140 X1.758 Y27.511
N4145 X1.91 Y27.751
N4150 X2.047 Y28.013
N4155 X2.193 Y28.358
N4160 X2.344 Y28.808
N4165 X2.499 Y29.441
N4170 X2.629 Y30.239
N4175 X2.706 Y31.043
N4180 X2.752 Y31.85
N4185 X2.78 Y32.658
N4190 X2.797 Y33.466
N4195 X2.807 Y34.274
N4200 X2.813 Y35.082
N4205 X2.817 Y35.89
N4210 X2.82 Y37.507
N4215 X2.822 Y40.74
N4220 X2.819 Y77.919
N4225 X2.815 Y128.029
N4230 Y134.147
N4235 X2.791 Y134.354
N4240 X2.722 Y134.551
N4245 X2.611 Y134.728
N4250 X2.253 Y135.178
N4255 X1.758 Y135.811
N4260 X1.693 Y135.913
N4265 X1.574 Y136.115
N4270 X1.091 Y136.958
N4275 G3 X0.426 Y136.981 I-0.34 J-0.211
N4280 G1 X0.38 Y136.917 Z-3.482
N4285 X0.337 Y136.856 Z-3.46
N4290 X0.296 Y136.8 Z-3.423
N4295 X0.261 Y136.751 Z-3.373
N4300 X0.232 Y136.71 Z-3.312
N4305 X0.21 Y136.68 Z-3.243
N4310 X0.197 Y136.662 Z-3.168
N4315 X0.193 Y136.656 Z-3.09
N4320 G0 Z5.
N4325 G1 X0.779 Y26.858 F5000.
N4330 G0 Z-2.69
N4335 G1 Z-3.09 F500.
N4340 X0.786 Y26.861 Z-3.168
N4345 X0.806 Y26.871 Z-3.243
N4350 X0.84 Y26.886 Z-3.312
N4355 X0.885 Y26.906 Z-3.373
N4360 X0.941 Y26.931 Z-3.423
N4365 X1.004 Y26.959 Z-3.46
N4370 X1.072 Y26.99 Z-3.482
N4375 X1.144 Y27.022 Z-3.49
N4380 G3 X1.758 Y27.511 I-0.648 J1.444
N4385 G1 X1.968 Y27.81 F1000.
N4390 X2.102 Y27.993
N4395 X3.073 Y29.278
N4400 X3.212 Y29.461
N4405 X3.402 Y29.741
N4410 X3.548 Y29.995
N4415 X3.698 Y30.316
N4420 X3.855 Y30.735
N4425 X4.015 Y31.296
N4430 X4.173 Y32.089
N4435 X4.269 Y32.891
N4440 X4.328 Y33.697
N4445 X4.364 Y34.505
N4450 X4.387 Y35.313
N4455 X4.4 Y36.121
N4460 X4.409 Y36.929
N4465 X4.414 Y37.737
N4470 X4.417 Y38.545
N4475 X4.42 Y40.162
N4480 X4.421 Y44.203
N4485 X4.419 Y79.765
N4490 X4.415 Y129.876
N4495 Y132.351
N4500 X4.379 Y132.603
N4505 X4.277 Y132.837
N4510 X4.115 Y133.034
N4515 X3.778 Y133.346
N4520 X3.594 Y133.527
N4525 X3.424 Y133.71
N4530 X3.044 Y134.186
N4535 X2.611 Y134.728
N4540 G3 X1.951 Y134.65 I-0.304 J-0.26
N4545 G1 X1.915 Y134.58 Z-3.482
N4550 X1.881 Y134.513 Z-3.46
N4555 X1.85 Y134.452 Z-3.423
N4560 X1.823 Y134.398 Z-3.373
N4565 X1.8 Y134.353 Z-3.312
N4570 X1.783 Y134.32 Z-3.243
N4575 X1.773 Y134.3 Z-3.168
N4580 X1.769 Y134.293 Z-3.09
N4585 G0 Z5.
N4590 G1 X2.21 Y28.844 F5000.
N4595 G0 Z-2.69
N4600 G1 Z-3.09 F500.
N4605 X2.217 Y28.847 Z-3.168
N4610 X2.238 Y28.856 Z-3.243
N4615 X2.272 Y28.87 Z-3.312
N4620 X2.318 Y28.888 Z-3.373
N4625 X2.374 Y28.911 Z-3.423
N4630 X2.438 Y28.937 Z-3.46
N4635 X2.508 Y28.965 Z-3.482
N4640 X2.58 Y28.995 Z-3.49
N4645 G3 X3.212 Y29.461 I-0.595 J1.466
N4650 G1 X3.411 Y29.724 F1000.
N4655 X3.507 Y29.829
N4660 X3.962 Y30.283
N4665 X4.513 Y30.818
N4670 X4.679 Y30.996
N4675 X4.823 Y31.178
N4680 X4.97 Y31.397
N4685 X5.123 Y31.671
N4690 X5.285 Y32.023
N4695 X5.449 Y32.473
N4700 X5.617 Y33.082
N4705 X5.768 Y33.875
N4710 X5.863 Y34.678
N4715 X5.922 Y35.484
N4720 X5.959 Y36.292
N4725 X5.983 Y37.099
N4730 X5.997 Y37.908
N4735 X6.006 Y38.716
N4740 X6.012 Y39.524
N4745 X6.016 Y40.332
N4750 X6.019 Y41.949
N4755 X6.021 Y45.182
N4760 X6.019 Y80.744
N4765 X6.015 Y130.855
N4770 X6.013 Y130.916
N4775 X5.985 Y131.124
N4780 X5.911 Y131.32
N4785 X5.795 Y131.494
N4790 X5.643 Y131.639
N4795 X5.615 Y131.66
N4800 X5.247 Y131.987
N4805 X4.115 Y133.034
N4810 G3 X3.474 Y132.857 I-0.261 J-0.303
N4815 G1 X3.45 Y132.782 Z-3.482
N4820 X3.426 Y132.711 Z-3.46
N4825 X3.404 Y132.645 Z-3.423
N4830 X3.385 Y132.588 Z-3.373
N4835 X3.37 Y132.541 Z-3.312
N4840 X3.358 Y132.506 Z-3.243
N4845 X3.351 Y132.484 Z-3.168
N4850 X3.349 Y132.477 Z-3.09
N4855 G0 Z5.
N4860 G1 X3.428 Y30.359 F5000.
N4865 G0 Z-2.69
N4870 G1 Z-3.09 F500.
N4875 X3.436 Y30.361 Z-3.168
N4880 X3.458 Y30.367 Z-3.243
N4885 X3.494 Y30.375 Z-3.312
N4890 X3.542 Y30.387 Z-3.373
N4895 X3.601 Y30.401 Z-3.423
N4900 X3.669 Y30.417 Z-3.46
N4905 X3.742 Y30.434 Z-3.482
N4910 X3.818 Y30.452 Z-3.49
N4915 G3 X4.513 Y30.818 I-0.366 J1.54
N4920 G1 X5.247 Y31.53 F1000.
N4925 X5.431 Y31.702
N4930 X5.594 Y31.847
N4935 X5.798 Y31.999
N4940 X5.997 Y32.163
N4945 X6.141 Y32.302
N4950 X6.281 Y32.462
N4955 X6.43 Y32.662
N4960 X6.593 Y32.923
N4965 X6.753 Y33.229
N4970 X6.925 Y33.637
N4975 X7.094 Y34.151
N4980 X7.269 Y34.87
N4985 X7.397 Y35.669
N4990 X7.478 Y36.473
N4995 X7.53 Y37.279
N5000 X7.563 Y38.087
N5005 X7.584 Y38.895
N5010 X7.598 Y39.703
N5015 X7.607 Y40.511
N5020 X7.612 Y41.319
N5025 X7.616 Y42.127
N5030 X7.619 Y43.744
N5035 X7.621 Y46.977
N5040 X7.619 Y81.731
N5045 X7.615 Y129.417
N5050 X7.605 Y129.825
N5055 X7.574 Y130.044
N5060 X7.491 Y130.25
N5065 X7.362 Y130.431
N5070 X7.195 Y130.576
N5075 X5.982 Y131.396
N5080 X5.798 Y131.521
N5085 X5.643 Y131.639
N5090 G3 X5.022 Y131.398 I-0.23 J-0.327
N5095 G1 X5.006 Y131.322 Z-3.482
N5100 X4.989 Y131.249 Z-3.46
N5105 X4.974 Y131.181 Z-3.423
N5110 X4.961 Y131.122 Z-3.373
N5115 X4.95 Y131.073 Z-3.312
N5120 X4.942 Y131.037 Z-3.243
N5125 X4.937 Y131.015 Z-3.168
N5130 X4.936 Y131.008 Z-3.09
N5135 G0 Z5.
N5140 G1 X4.664 Y31.686 F5000.
N5145 G0 Z-2.69
N5150 G1 Z-3.09 F500.
N5155 X4.671 Y31.687 Z-3.168
N5160 X4.694 Y31.689 Z-3.243
N5165 X4.731 Y31.693 Z-3.312
N5170 X4.78 Y31.698 Z-3.373
N5175 X4.841 Y31.704 Z-3.423
N5180 X4.909 Y31.711 Z-3.46
N5185 X4.984 Y31.719 Z-3.482
N5190 X5.062 Y31.727 Z-3.49
N5195 G3 X5.798 Y31.999 I-0.163 J1.574
N5200 G1 X5.841 Y32.031 F1000.
N5205 X7.268 Y33.04
N5210 X7.461 Y33.192
N5215 X7.614 Y33.333
N5220 X7.759 Y33.491
N5225 X7.919 Y33.696
N5230 X8.092 Y33.958
N5235 X8.26 Y34.262
N5240 X8.441 Y34.664
N5245 X8.619 Y35.163
N5250 X8.801 Y35.842
N5255 X8.947 Y36.636
N5260 X9.042 Y37.439
N5265 X9.105 Y38.245
N5270 X9.146 Y39.052
N5275 X9.172 Y39.86
N5280 X9.19 Y40.668
N5285 X9.201 Y41.476
N5290 X9.208 Y42.284
N5295 X9.213 Y43.092
N5300 X9.216 Y43.901
N5305 X9.219 Y45.517
N5310 X9.221 Y48.75
N5315 X9.219 Y82.696
N5320 X9.215 Y127.957
N5325 X9.21 Y128.765
N5330 X9.194 Y128.952
N5335 X9.143 Y129.19
N5340 X9.031 Y129.406
N5345 X8.868 Y129.586
N5350 X8.664 Y129.717
N5355 X8.369 Y129.857
N5360 X8.186 Y129.951
N5365 X7.725 Y130.223
N5370 X7.635 Y130.278
N5375 X7.195 Y130.576
N5380 G3 X6.588 Y130.303 I-0.212 J-0.339
N5385 G1 X6.575 Y130.226 Z-3.482
N5390 X6.563 Y130.152 Z-3.46
N5395 X6.551 Y130.084 Z-3.423
N5400 X6.541 Y130.024 Z-3.373
N5405 X6.533 Y129.975 Z-3.312
N5410 X6.527 Y129.939 Z-3.243
N5415 X6.523 Y129.916 Z-3.168
N5420 X6.522 Y129.909 Z-3.09
N5425 G0 Z5.
N5430 G1 X6.126 Y32.754 F5000.
N5435 G0 Z-2.69
N5440 G1 Z-3.09 F500.
N5445 X6.133 Y32.755 Z-3.168
N5450 X6.156 Y32.756 Z-3.243
N5455 X6.193 Y32.759 Z-3.312
N5460 X6.243 Y32.763 Z-3.373
N5465 X6.303 Y32.768 Z-3.423
N5470 X6.372 Y32.774 Z-3.46
N5475 X6.447 Y32.78 Z-3.482
N5480 X6.525 Y32.786 Z-3.49
N5485 G3 X7.268 Y33.04 I-0.125 J1.578
N5490 G1 X7.657 Y33.316 F1000.
N5495 X8.186 Y33.629
N5500 X8.281 Y33.683
N5505 X8.553 Y33.818
N5510 X8.707 Y33.904
N5515 X8.836 Y33.992
N5520 X8.984 Y34.109
N5525 X9.147 Y34.261
N5530 X9.301 Y34.432
N5535 X9.474 Y34.655
N5540 X9.656 Y34.934
N5545 X9.833 Y35.262
N5550 X10.022 Y35.69
N5555 X10.211 Y36.231
N5560 X10.401 Y36.955
N5565 X10.542 Y37.751
N5570 X10.635 Y38.554
N5575 X10.698 Y39.36
N5580 X10.74 Y40.167
N5585 X10.767 Y40.975
N5590 X10.786 Y41.783
N5595 X10.798 Y42.591
N5600 X10.806 Y43.399
N5605 X10.811 Y44.207
N5610 X10.815 Y45.015
N5615 X10.819 Y46.632
N5620 X10.821 Y49.865
N5625 X10.819 Y83.811
N5630 X10.815 Y126.647
N5635 X10.814 Y127.455
N5640 X10.791 Y128.042
N5645 X10.767 Y128.242
N5650 X10.708 Y128.475
N5655 X10.592 Y128.685
N5660 X10.426 Y128.858
N5665 X10.222 Y128.983
N5670 X10.022 Y129.074
N5675 X8.664 Y129.717
N5680 G3 X8.105 Y129.356 I-0.159 J-0.367
N5685 G1 X8.104 Y129.278 Z-3.482
N5690 X8.103 Y129.203 Z-3.46
N5695 X8.102 Y129.134 Z-3.423
N5700 X8.101 Y129.073 Z-3.373
N5705 Y129.023 Z-3.312
N5710 X8.1 Y128.986 Z-3.243
N5715 Y128.964 Z-3.168
N5720 Y128.956 Z-3.09
N5725 G0 Z5.
N5730 G1 X7.381 Y33.71 F5000.
N5735 G0 Z-2.69
N5740 G1 Z-3.09 F500.
N5745 X7.389 Z-3.168
N5750 X7.411 Y33.708 Z-3.243
N5755 X7.448 Y33.705 Z-3.312
N5760 X7.498 Y33.702 Z-3.373
N5765 X7.558 Y33.697 Z-3.423
N5770 X7.627 Y33.692 Z-3.46
N5775 X7.702 Y33.686 Z-3.482
N5780 X7.78 Y33.68 Z-3.49
N5785 G3 X8.553 Y33.818 I0.118 J1.578
N5790 G1 X10.022 Y34.549 F1000.
N5795 X10.156 Y34.62
N5800 X10.305 Y34.716
N5805 X10.452 Y34.829
N5810 X10.612 Y34.973
N5815 X10.793 Y35.163
N5820 X10.967 Y35.38
N5825 X11.151 Y35.65
N5830 X11.235 Y35.798
N5835 X11.302 Y35.944
N5840 X11.343 Y36.099
N5845 X11.357 Y36.259
N5850 G3 X10.648 Y36.499 I-0.4 J-0.014
N5855 G1 X9.555 Y35.171
N5860 G3 X9.464 Y34.911 I0.309 J-0.254
N5865 X10.022 Y34.549 I0.4 J0.005 F500.
N5870 G1 X10.131 Y34.601 F1000.
N5875 X10.573 Y34.802
N5880 X10.757 Y34.872
N5885 X11.057 Y34.968
N5890 X11.124 Y34.994
N5895 X11.166 Y35.019
N5900 X11.208 Y35.052
N5905 X11.255 Y35.101
N5910 X11.292 Y35.151
N5915 X11.308 Y35.178
N5920 X11.327 Y35.217
N5925 X11.34 Y35.256
N5930 X11.35 Y35.296
N5935 X11.355 Y35.335
N5940 X11.357 Y35.518
N5945 Y128.204
N5950 X11.356 Y128.296
N5955 X11.351 Y128.342
N5960 X11.34 Y128.388
N5965 X11.326 Y128.425
N5970 X11.308 Y128.463
N5975 X11.273 Y128.517
N5980 X11.25 Y128.544
N5985 X11.222 Y128.571
N5990 X11.173 Y128.61
N5995 X11.124 Y128.639
N6000 X11.078 Y128.659
N6005 X10.757 Y128.758
N6010 X10.573 Y128.826
N6015 X10.222 Y128.983
N6020 G3 X9.671 Y128.61 I-0.151 J-0.371
N6025 G1 Y128.532 Z-3.482
N6030 X9.672 Y128.457 Z-3.46
N6035 Y128.388 Z-3.423
N6040 X9.673 Y128.327 Z-3.373
N6045 Y128.278 Z-3.312
N6050 Y128.241 Z-3.243
N6055 Y128.218 Z-3.168
N6060 X9.674 Y128.21 Z-3.09
N6065 G0 Z5.
N6070 G1 X-0.392 Y153.985 F5000.
N6075 G0 Z-2.69
N6080 G1 Z-3.09 F500.
N6085 X-0.386 Y153.989 Z-3.168
N6090 X-0.366 Y154.002 Z-3.243
N6095 X-0.336 Y154.022 Z-3.312
N6100 X-0.294 Y154.049 Z-3.373
N6105 X-0.243 Y154.082 Z-3.423
N6110 X-0.185 Y154.12 Z-3.46
N6115 X-0.123 Y154.161 Z-3.482
N6120 X-0.057 Y154.204 Z-3.49
N6125 G3 X0.472 Y154.784 I-0.867 J1.324
N6130 G1 X0.488 Y154.817 F1000.
N6135 X0.586 Y155.
N6140 X0.914 Y155.551
N6145 X1.579 Y156.652
N6150 X1.69 Y156.836
N6155 X1.804 Y157.019
N6160 X1.99 Y157.354
N6165 X2.136 Y157.677
N6170 X2.409 Y158.438
N6175 X2.792 Y159.15
N6180 X3.376 Y159.708
N6185 X4.078 Y160.109
N6190 X4.588 Y160.294
N6195 X4.695 Y160.34
N6200 X4.796 Y160.4
N6205 X4.888 Y160.472
N6210 G3 X4.314 Y161.028 I-0.275 J0.29
N6215 G1 X1.174 Y157.508
N6220 G3 X1.139 Y157.02 I0.298 J-0.266
N6225 X1.804 Y157.019 I0.333 J0.222 F500.
N6230 G1 X1.942 Y157.24 F1000.
N6235 X2.043 Y157.386
N6240 X2.19 Y157.57
N6245 X2.341 Y157.753
N6250 X3.595 Y159.257
N6255 X3.719 Y159.405
N6260 X3.778 Y159.467
N6265 X3.962 Y159.647
N6270 X4.097 Y159.772
N6275 X5.615 Y161.114
N6280 X5.798 Y161.276
N6285 X5.985 Y161.424
N6290 X6.166 Y161.552
N6295 X7.81 Y162.611
N6300 G3 X7.798 Y163.276 I-0.228 J0.329
N6305 G1 X7.732 Y163.318 Z-3.482
N6310 X7.669 Y163.359 Z-3.46
N6315 X7.611 Y163.396 Z-3.423
N6320 X7.56 Y163.429 Z-3.373
N6325 X7.518 Y163.456 Z-3.312
N6330 X7.487 Y163.476 Z-3.243
N6335 X7.468 Y163.488 Z-3.168
N6340 X7.461 Y163.492 Z-3.09
N6345 G0 Z5.
N6350 G1 X24.681 Y164.256 F5000.
N6355 G0 Z-2.69
N6360 G1 Z-3.09 F500.
N6365 X24.685 Y164.25 Z-3.168
N6370 X24.696 Y164.23 Z-3.243
N6375 X24.716 Y164.199 Z-3.312
N6380 X24.741 Y164.156 Z-3.373
N6385 X24.773 Y164.104 Z-3.423
N6390 X24.809 Y164.045 Z-3.46
N6395 X24.848 Y163.981 Z-3.482
N6400 X24.888 Y163.914 Z-3.49
N6405 G3 X25.449 Y163.365 I1.353 J0.82
N6410 G1 X26.735 Y162.677 F1000.
N6415 X27.102 Y162.478
N6420 X27.351 Y162.342
N6425 X27.469 Y162.271
N6430 X27.653 Y162.143
N6435 X27.837 Y162.007
N6440 X28.018 Y161.884
N6445 X28.265 Y161.745
N6450 X28.574 Y161.602
N6455 X28.984 Y161.452
N6460 X29.539 Y161.297
N6465 X30.332 Y161.143
N6470 X31.135 Y161.051
N6475 X31.941 Y160.996
N6480 X32.749 Y160.963
N6485 X33.557 Y160.943
N6490 X34.365 Y160.931
N6495 X35.173 Y160.924
N6500 X35.981 Y160.919
N6505 X36.79 Y160.917
N6510 X38.406 Y160.914
N6515 X43.256 Y160.913
N6520 X78.01 Y160.915
N6525 X128.12 Y160.917
N6530 X178.231 Y160.92
N6535 X184.825
N6540 X185.008 Y160.938
N6545 X185.184 Y160.992
N6550 X185.346 Y161.079
N6555 X186.951 Y162.158
N6560 X187.063 Y162.22
N6565 X187.43 Y162.412
N6570 X187.614 Y162.505
N6575 X187.835 Y162.608
N6580 G3 X187.914 Y163.268 I-0.182 J0.356
N6585 G1 X187.854 Y163.319 Z-3.482
N6590 X187.797 Y163.368 Z-3.46
N6595 X187.745 Y163.413 Z-3.423
N6600 X187.699 Y163.452 Z-3.373
N6605 X187.661 Y163.484 Z-3.312
N6610 X187.633 Y163.508 Z-3.243
N6615 X187.615 Y163.523 Z-3.168
N6620 X187.61 Y163.528 Z-3.09
N6625 G0 Z5.
N6630 G1 X27.214 Y163.006 F5000.
N6635 G0 Z-2.69
N6640 G1 Z-3.09 F500.
N6645 X27.217 Y162.999 Z-3.168
N6650 X27.226 Y162.978 Z-3.243
N6655 X27.24 Y162.944 Z-3.312
N6660 X27.259 Y162.898 Z-3.373
N6665 X27.282 Y162.842 Z-3.423
N6670 X27.308 Y162.778 Z-3.46
N6675 X27.337 Y162.708 Z-3.482
N6680 X27.367 Y162.636 Z-3.49
N6685 G3 X27.837 Y162.007 I1.463 J0.603
N6690 G1 X29.306 Y160.905 F1000.
N6695 X29.808 Y160.507
N6700 X29.926 Y160.413
N6705 X30.153 Y160.27
N6710 X30.435 Y160.122
N6715 X30.799 Y159.968
N6720 X31.275 Y159.81
N6725 X31.939 Y159.647
N6730 X32.737 Y159.518
N6735 X33.541 Y159.439
N6740 X34.348 Y159.39
N6745 X35.156 Y159.36
N6750 X35.964 Y159.342
N6755 X36.772 Y159.331
N6760 X37.58 Y159.324
N6765 X38.389 Y159.319
N6770 X39.197 Y159.317
N6775 X40.813 Y159.314
N6780 X45.663 Y159.313
N6785 X79.609 Y159.315
N6790 X129.719 Y159.317
N6795 X179.83 Y159.32
N6800 X182.904
N6805 X183.134 Y159.349
N6810 X183.35 Y159.434
N6815 X183.539 Y159.569
N6820 X184.55 Y160.507
N6825 X184.676 Y160.604
N6830 X185.043 Y160.874
N6835 X185.313 Y161.057
N6840 X185.346 Y161.079
N6845 G3 X185.32 Y161.744 I-0.235 J0.324
N6850 G1 X185.254 Y161.785 Z-3.482
N6855 X185.19 Y161.824 Z-3.46
N6860 X185.131 Y161.86 Z-3.423
N6865 X185.079 Y161.892 Z-3.373
N6870 X185.037 Y161.918 Z-3.312
N6875 X185.006 Y161.937 Z-3.243
N6880 X184.986 Y161.949 Z-3.168
N6885 X184.98 Y161.953 Z-3.09
N6890 G0 Z5.
N6895 G1 X29.3 Y161.568 F5000.
N6900 G0 Z-2.69
N6905 G1 Z-3.09 F500.
N6910 X29.302 Y161.561 Z-3.168
N6915 X29.308 Y161.539 Z-3.243
N6920 X29.318 Y161.503 Z-3.312
N6925 X29.332 Y161.455 Z-3.373
N6930 X29.349 Y161.397 Z-3.423
N6935 X29.368 Y161.331 Z-3.46
N6940 X29.389 Y161.259 Z-3.482
N6945 X29.41 Y161.184 Z-3.49
N6950 G3 X29.808 Y160.507 I1.521 J0.438
N6955 G1 X29.857 Y160.461 F1000.
N6960 X30.04 Y160.276
N6965 X31.074 Y159.222
N6970 X31.26 Y159.05
N6975 X31.435 Y158.912
N6980 X31.663 Y158.761
N6985 X31.948 Y158.604
N6990 X32.304 Y158.444
N6995 X32.768 Y158.278
N7000 X33.398 Y158.108
N7005 X34.193 Y157.961
N7010 X34.996 Y157.869
N7015 X35.802 Y157.811
N7020 X36.609 Y157.774
N7025 X37.417 Y157.751
N7030 X38.225 Y157.737
N7035 X39.033 Y157.728
N7040 X39.842 Y157.722
N7045 X40.65 Y157.719
N7050 X42.266 Y157.715
N7055 X45.499 Y157.713
N7060 X81.062 Y157.715
N7065 X131.172 Y157.717
N7070 X181.283 Y157.72
N7075 X181.375 Y157.721
N7080 X181.581 Y157.747
N7085 X181.775 Y157.818
N7090 X181.95 Y157.93
N7095 X182.095 Y158.077
N7100 X182.419 Y158.488
N7105 X182.472 Y158.548
N7110 X182.768 Y158.855
N7115 X183.539 Y159.569
N7120 G3 X183.411 Y160.222 I-0.282 J0.284
N7125 G1 X183.339 Y160.252 Z-3.482
N7130 X183.269 Y160.281 Z-3.46
N7135 X183.206 Y160.308 Z-3.423
N7140 X183.15 Y160.331 Z-3.373
N7145 X183.104 Y160.35 Z-3.312
N7150 X183.07 Y160.364 Z-3.243
N7155 X183.049 Y160.373 Z-3.168
N7160 X183.042 Y160.376 Z-3.09
N7165 G0 Z5.
N7170 G1 X30.61 Y160.303 F5000.
N7175 G0 Z-2.69
N7180 G1 Z-3.09 F500.
N7185 X30.611 Y160.296 Z-3.168
N7190 X30.617 Y160.274 Z-3.243
N7195 X30.626 Y160.238 Z-3.312
N7200 X30.637 Y160.19 Z-3.373
N7205 X30.652 Y160.131 Z-3.423
N7210 X30.668 Y160.064 Z-3.46
N7215 X30.686 Y159.991 Z-3.482
N7220 X30.704 Y159.915 Z-3.49
N7225 G3 X31.074 Y159.222 I1.538 J0.375
N7230 G1 X31.613 Y158.671 F1000.
N7235 X31.693 Y158.584
N7240 X31.773 Y158.488
N7245 X32.178 Y157.937
N7250 X32.3 Y157.785
N7255 X32.43 Y157.646
N7260 X32.599 Y157.493
N7265 X32.789 Y157.347
N7270 X33.035 Y157.188
N7275 X33.344 Y157.021
N7280 X33.726 Y156.852
N7285 X34.226 Y156.679
N7290 X34.906 Y156.502
N7295 X35.702 Y156.362
N7300 X36.505 Y156.273
N7305 X37.312 Y156.215
N7310 X38.119 Y156.178
N7315 X38.927 Y156.155
N7320 X39.735 Y156.14
N7325 X40.543 Y156.13
N7330 X41.351 Y156.124
N7335 X42.16 Y156.12
N7340 X43.776 Y156.116
N7345 X46.201 Y156.114
N7350 X66.407
N7355 X81.763 Y156.115
N7360 X131.874 Y156.118
N7365 X179.56 Y156.12
N7370 X180.12 Y156.122
N7375 X180.341 Y156.149
N7380 X180.55 Y156.229
N7385 X180.733 Y156.355
N7390 X180.882 Y156.521
N7395 X180.973 Y156.652
N7400 X182.095 Y158.077
N7405 G3 X181.867 Y158.702 I-0.323 J0.236
N7410 G1 X181.792 Y158.721 Z-3.482
N7415 X181.719 Y158.738 Z-3.46
N7420 X181.651 Y158.755 Z-3.423
N7425 X181.593 Y158.769 Z-3.373
N7430 X181.544 Y158.781 Z-3.312
N7435 X181.508 Y158.79 Z-3.243
N7440 X181.486 Y158.795 Z-3.168
N7445 X181.479 Y158.797 Z-3.09
N7450 G0 Z5.
N7455 G1 X31.883 Y159.076 F5000.
N7460 G0 Z-2.69
N7465 G1 Z-3.09 F500.
N7470 X31.884 Y159.069 Z-3.168
N7475 X31.886 Y159.046 Z-3.243
N7480 X31.889 Y159.009 Z-3.312
N7485 X31.893 Y158.96 Z-3.373
N7490 X31.898 Y158.899 Z-3.423
N7495 X31.904 Y158.83 Z-3.46
N7500 X31.911 Y158.756 Z-3.482
N7505 X31.918 Y158.678 Z-3.49
N7510 G3 X32.178 Y157.937 I1.577 J0.138
N7515 G1 X32.979 Y156.824 F1000.
N7520 X33.101 Y156.652
N7525 X33.229 Y156.469
N7530 X33.373 Y156.284
N7535 X33.502 Y156.143
N7540 X33.661 Y155.994
N7545 X33.871 Y155.828
N7550 X34.12 Y155.662
N7555 X34.426 Y155.49
N7560 X34.818 Y155.311
N7565 X35.317 Y155.13
N7570 X35.978 Y154.948
N7575 X36.772 Y154.798
N7580 X37.575 Y154.699
N7585 X38.38 Y154.634
N7590 X39.187 Y154.592
N7595 X39.995 Y154.564
N7600 X40.803 Y154.546
N7605 X41.611 Y154.535
N7610 X42.42 Y154.527
N7615 X43.228 Y154.522
N7620 X44.036 Y154.519
N7625 X45.652 Y154.515
N7630 X48.885 Y154.514
N7635 X82.831 Y154.515
N7640 X132.942 Y154.518
N7645 X178.203 Y154.52
N7650 X179.011 Y154.521
N7655 X179.233 Y154.536
N7660 X179.459 Y154.581
N7665 X179.667 Y154.679
N7670 X179.845 Y154.826
N7675 X179.982 Y155.011
N7680 X180.593 Y156.102
N7685 X180.635 Y156.167
N7690 X180.882 Y156.521
N7695 G3 X180.618 Y157.132 I-0.336 J0.217
N7700 G1 X180.541 Y157.146 Z-3.482
N7705 X180.468 Y157.16 Z-3.46
N7710 X180.4 Y157.172 Z-3.423
N7715 X180.34 Y157.183 Z-3.373
N7720 X180.291 Y157.192 Z-3.312
N7725 X180.255 Y157.199 Z-3.243
N7730 X180.232 Y157.203 Z-3.168
N7735 X180.225 Y157.204 Z-3.09
N7740 G0 Z5.
N7745 G1 X32.95 Y157.612 F5000.
N7750 G0 Z-2.69
N7755 G1 Z-3.09 F500.
N7760 Y157.604 Z-3.168
N7765 X32.952 Y157.582 Z-3.243
N7770 X32.955 Y157.545 Z-3.312
N7775 X32.958 Y157.495 Z-3.373
N7780 X32.963 Y157.435 Z-3.423
N7785 X32.968 Y157.366 Z-3.46
N7790 X32.973 Y157.291 Z-3.482
N7795 X32.979 Y157.213 Z-3.49
N7800 G3 X33.229 Y156.469 I1.578 J0.116
N7805 G1 X33.358 Y156.285 F1000.
N7810 X33.473 Y156.102
N7815 X33.757 Y155.551
N7820 X33.944 Y155.184
N7825 X34.028 Y155.038
N7830 X34.12 Y154.904
N7835 X34.244 Y154.752
N7840 X34.401 Y154.587
N7845 X34.579 Y154.429
N7850 X34.814 Y154.251
N7855 X35.1 Y154.068
N7860 X35.445 Y153.886
N7865 X35.886 Y153.696
N7870 X36.457 Y153.503
N7875 X37.217 Y153.312
N7880 X38.014 Y153.179
N7885 X38.818 Y153.09
N7890 X39.624 Y153.031
N7895 X40.431 Y152.991
N7900 X41.239 Y152.965
N7905 X42.047 Y152.947
N7910 X42.855 Y152.935
N7915 X43.663 Y152.928
N7920 X44.471 Y152.923
N7925 X45.28 Y152.919
N7930 X46.896 Y152.916
N7935 X50.129 Y152.914
N7940 X84.075 Y152.915
N7945 X134.186 Y152.918
N7950 X177.83 Y152.92
N7955 X178.367 Y152.945
N7960 X178.452 Y152.956
N7965 X178.692 Y153.02
N7970 X178.907 Y153.145
N7975 X179.082 Y153.323
N7980 X179.203 Y153.54
N7985 X179.272 Y153.716
N7990 X179.368 Y153.899
N7995 X179.565 Y154.266
N8000 X179.717 Y154.539
N8005 X179.982 Y155.011
N8010 G3 X179.659 Y155.593 I-0.356 J0.183
N8015 G1 X179.582 Y155.599 Z-3.482
N8020 X179.507 Y155.606 Z-3.46
N8025 X179.438 Y155.612 Z-3.423
N8030 X179.378 Y155.617 Z-3.373
N8035 X179.328 Y155.621 Z-3.312
N8040 X179.291 Y155.624 Z-3.243
N8045 X179.269 Y155.626 Z-3.168
N8050 X179.261 Z-3.09
N8055 G0 Z5.
N8060 G1 X33.825 Y156.355 F5000.
N8065 G0 Z-2.69
N8070 G1 Z-3.09 F500.
N8075 Y156.347 Z-3.168
N8080 X33.823 Y156.325 Z-3.243
N8085 X33.821 Y156.288 Z-3.312
N8090 X33.817 Y156.238 Z-3.373
N8095 X33.814 Y156.178 Z-3.423
N8100 X33.809 Y156.109 Z-3.46
N8105 X33.804 Y156.034 Z-3.482
N8110 X33.799 Y155.956 Z-3.49
N8115 G3 X33.944 Y155.184 I1.579 J-0.103
N8120 G1 X34.632 Y153.835 F1000.
N8125 X34.687 Y153.716
N8130 X34.749 Y153.579
N8135 X34.846 Y153.432
N8140 X34.967 Y153.275
N8145 X35.111 Y153.117
N8150 X35.141 Y153.09
N8155 X35.33 Y152.953
N8160 X35.546 Y152.868
N8165 X35.778 Y152.839
N8170 G3 X36.025 Y153.541 I-0.014 J0.4
N8175 G1 X35.329 Y154.141
N8180 X35.278 Y154.178
N8185 X35.222 Y154.207
N8190 X35.162 Y154.227
N8195 X35.1 Y154.237
N8200 G3 X34.687 Y153.716 I-0.033 J-0.399 F500.
N8205 G1 X34.885 Y153.165 F1000.
N8210 X34.92 Y153.073
N8215 X34.946 Y153.027
N8220 X34.982 Y152.982
N8225 X34.999 Y152.964
N8230 X35.045 Y152.924
N8235 X35.091 Y152.892
N8240 X35.137 Y152.87
N8245 X35.183 Y152.854
N8250 X35.229 Y152.843
N8255 X35.275 Y152.839
N8260 X178.615
N8265 X178.707 Y152.843
N8270 X178.753 Y152.852
N8275 X178.799 Y152.867
N8280 X178.84 Y152.886
N8285 X178.881 Y152.912
N8290 X178.923 Y152.942
N8295 X178.964 Y152.982
N8300 X178.982 Y153.003
N8305 X179.01 Y153.044
N8310 X179.032 Y153.084
N8315 X179.063 Y153.165
N8320 X179.185 Y153.492
N8325 X179.203 Y153.54
N8330 G3 X178.804 Y154.073 I-0.377 J0.133
N8335 G1 X178.726 Y154.069 Z-3.482
N8340 X178.652 Y154.065 Z-3.46
N8345 X178.582 Y154.061 Z-3.423
N8350 X178.522 Y154.058 Z-3.373
N8355 X178.472 Y154.055 Z-3.312
N8360 X178.435 Y154.053 Z-3.243
N8365 X178.413 Y154.052 Z-3.168
N8370 X178.405 Z-3.09
N8375 G0 Z5.
N8380 G1 X203.038 Y163.967 F5000.
N8385 G0 Z-2.69
N8390 G1 Z-3.09 F500.
N8395 X203.043 Y163.961 Z-3.168
N8400 X203.056 Y163.942 Z-3.243
N8405 X203.078 Y163.912 Z-3.312
N8410 X203.107 Y163.872 Z-3.373
N8415 X203.143 Y163.823 Z-3.423
N8420 X203.183 Y163.767 Z-3.46
N8425 X203.227 Y163.706 Z-3.482
N8430 X203.273 Y163.643 Z-3.49
N8435 G3 X203.876 Y163.14 I1.282 J0.927
N8440 G1 X204.326 Y162.946 F1000.
N8445 X204.427 Y162.892
N8450 X206.163 Y161.946
N8455 X206.347 Y161.84
N8460 X206.674 Y161.673
N8465 X207.026 Y161.528
N8470 X207.494 Y161.377
N8475 X208.281 Y161.192
N8480 X208.661 Y161.055
N8485 X209.36 Y160.649
N8490 X209.887 Y160.036
N8495 X210.258 Y159.319
N8500 X210.511 Y158.551
N8505 X210.526 Y158.48
N8510 X210.576 Y158.317
N8515 X210.656 Y158.165
N8520 X210.762 Y158.031
N8525 G3 X211.413 Y158.167 I0.28 J0.285
N8530 G1 X211.442 Y158.239 Z-3.482
N8535 X211.47 Y158.309 Z-3.46
N8540 X211.496 Y158.373 Z-3.423
N8545 X211.519 Y158.429 Z-3.373
N8550 X211.538 Y158.475 Z-3.312
N8555 X211.551 Y158.509 Z-3.243
N8560 X211.56 Y158.53 Z-3.168
N8565 X211.563 Y158.538 Z-3.09
N8570 G0 Z5.
N8575 G1 X205.608 Y162.756 F5000.
N8580 G0 Z-2.69
N8585 G1 Z-3.09 F500.
N8590 X205.611 Y162.749 Z-3.168
N8595 X205.623 Y162.73 Z-3.243
N8600 X205.641 Y162.697 Z-3.312
N8605 X205.665 Y162.654 Z-3.373
N8610 X205.695 Y162.601 Z-3.423
N8615 X205.729 Y162.541 Z-3.46
N8620 X205.765 Y162.476 Z-3.482
N8625 X205.804 Y162.408 Z-3.49
N8630 G3 X206.347 Y161.84 I1.379 J0.776
N8635 G1 X206.714 Y161.629 F1000.
N8640 X206.749 Y161.608
N8645 X206.898 Y161.498
N8650 X208.55 Y160.228
N8655 X209.101 Y159.77
N8660 X209.285 Y159.586
N8665 X210.851 Y157.937
N8670 X210.938 Y157.844
N8675 X211.305 Y157.35
N8680 X211.489 Y157.085
N8685 X212.547 Y155.551
N8690 X212.591 Y155.485
N8695 X212.668 Y155.359
N8700 G3 X213.333 Y155.334 I0.341 J0.21
N8705 G1 X213.379 Y155.398 Z-3.482
N8710 X213.422 Y155.459 Z-3.46
N8715 X213.463 Y155.515 Z-3.423
N8720 X213.498 Y155.564 Z-3.373
N8725 X213.528 Y155.604 Z-3.312
N8730 X213.549 Y155.634 Z-3.243
N8735 X213.563 Y155.652 Z-3.168
N8740 X213.567 Y155.659 Z-3.09
N8745 G0 Z5.
N8750 G1 X214.352 Y138.702 F5000.
N8755 G0 Z-2.69
N8760 G1 Z-3.09 F500.
N8765 X214.345 Y138.698 Z-3.168
N8770 X214.326 Y138.686 Z-3.243
N8775 X214.294 Y138.667 Z-3.312
N8780 X214.252 Y138.641 Z-3.373
N8785 X214.2 Y138.609 Z-3.423
N8790 X214.141 Y138.573 Z-3.46
N8795 X214.077 Y138.534 Z-3.482
N8800 X214.01 Y138.494 Z-3.49
N8805 G3 X213.462 Y137.932 I0.823 J-1.352
N8810 G1 X212.684 Y136.463 F1000.
N8815 X212.485 Y136.096
N8820 X212.386 Y135.913
N8825 X212.277 Y135.729
N8830 X212.149 Y135.546
N8835 X212.04 Y135.401
N8840 X211.948 Y135.265
N8845 X211.81 Y135.019
N8850 X211.667 Y134.71
N8855 X211.516 Y134.3
N8860 X211.362 Y133.746
N8865 X211.208 Y132.953
N8870 X211.116 Y132.15
N8875 X211.061 Y131.343
N8880 X211.028 Y130.536
N8885 X211.008 Y129.728
N8890 X210.996 Y128.92
N8895 X210.988 Y128.111
N8900 X210.984 Y127.303
N8905 X210.981 Y126.495
N8910 X210.978 Y124.878
N8915 X210.976 Y120.029
N8920 X210.971 Y85.275
N8925 X210.964 Y35.164
N8930 X210.963 Y29.826
N8935 X210.986 Y29.623
N8940 X211.051 Y29.43
N8945 X211.158 Y29.256
N8950 X212.13 Y27.993
N8955 X212.223 Y27.851
N8960 X212.46 Y27.443
N8965 X212.564 Y27.259
N8970 X212.679 Y27.051
N8975 G3 X213.343 Y27.017 I0.343 J0.205
N8980 G1 X213.39 Y27.08 Z-3.482
N8985 X213.434 Y27.14 Z-3.46
N8990 X213.476 Y27.196 Z-3.423
N8995 X213.512 Y27.244 Z-3.373
N9000 X213.542 Y27.284 Z-3.312
N9005 X213.564 Y27.314 Z-3.243
N9010 X213.577 Y27.332 Z-3.168
N9015 X213.582 Y27.338 Z-3.09
N9020 G0 Z5.
N9025 G1 X213.039 Y136.023 F5000.
N9030 G0 Z-2.69
N9035 G1 Z-3.09 F500.
N9040 X213.032 Y136.02 Z-3.168
N9045 X213.011 Y136.011 Z-3.243
N9050 X212.976 Y135.997 Z-3.312
N9055 X212.93 Y135.978 Z-3.373
N9060 X212.874 Y135.955 Z-3.423
N9065 X212.81 Y135.929 Z-3.46
N9070 X212.741 Y135.9 Z-3.482
N9075 X212.669 Y135.871 Z-3.49
N9080 G3 X212.04 Y135.401 I0.603 J-1.463
N9085 G1 X210.938 Y133.931 F1000.
N9090 X210.625 Y133.527
N9095 X210.418 Y133.23
N9100 X210.272 Y132.98
N9105 X210.123 Y132.672
N9110 X209.966 Y132.265
N9115 X209.807 Y131.726
N9120 X209.643 Y130.949
N9125 X209.54 Y130.147
N9130 X209.478 Y129.341
N9135 X209.439 Y128.534
N9140 X209.415 Y127.726
N9145 X209.4 Y126.918
N9150 X209.391 Y126.11
N9155 X209.386 Y125.302
N9160 X209.382 Y124.493
N9165 X209.378 Y122.877
N9170 X209.376 Y119.644
N9175 X209.371 Y83.273
N9180 X209.364 Y33.163
N9185 Y31.602
N9190 X209.397 Y31.352
N9195 X209.497 Y31.121
N9200 X209.654 Y30.925
N9205 X210.228 Y30.379
N9210 X210.387 Y30.217
N9215 X210.754 Y29.775
N9220 X210.857 Y29.645
N9225 X211.158 Y29.256
N9230 G3 X211.819 Y29.324 I0.308 J0.255
N9235 G1 X211.856 Y29.393 Z-3.482
N9240 X211.891 Y29.459 Z-3.46
N9245 X211.923 Y29.52 Z-3.423
N9250 X211.951 Y29.574 Z-3.373
N9255 X211.975 Y29.618 Z-3.312
N9260 X211.992 Y29.651 Z-3.243
N9265 X212.003 Y29.671 Z-3.168
N9270 X212.006 Y29.678 Z-3.09
N9275 G0 Z5.
N9280 G1 X211.633 Y134.133 F5000.
N9285 G0 Z-2.69
N9290 G1 Z-3.09 F500.
N9295 X211.626 Y134.13 Z-3.168
N9300 X211.605 Y134.122 Z-3.243
N9305 X211.571 Y134.109 Z-3.312
N9310 X211.524 Y134.09 Z-3.373
N9315 X211.468 Y134.068 Z-3.423
N9320 X211.404 Y134.043 Z-3.46
N9325 X211.334 Y134.015 Z-3.482
N9330 X211.261 Y133.987 Z-3.49
N9335 G3 X210.625 Y133.527 I0.58 J-1.473
N9340 G1 X210.571 Y133.457 F1000.
N9345 X210.47 Y133.343
N9350 X210.387 Y133.258
N9355 X210.288 Y133.16
N9360 X209.285 Y132.184
N9365 X209.127 Y132.015
N9370 X208.98 Y131.828
N9375 X208.833 Y131.609
N9380 X208.677 Y131.329
N9385 X208.515 Y130.974
N9390 X208.349 Y130.515
N9395 X208.181 Y129.9
N9400 X208.031 Y129.106
N9405 X207.937 Y128.303
N9410 X207.877 Y127.497
N9415 X207.84 Y126.69
N9420 X207.816 Y125.882
N9425 X207.802 Y125.074
N9430 X207.792 Y124.266
N9435 X207.786 Y123.457
N9440 X207.782 Y122.649
N9445 X207.779 Y121.033
N9450 X207.776 Y117.8
N9455 X207.771 Y82.237
N9460 X207.764 Y33.048
N9465 X207.789 Y32.831
N9470 X207.865 Y32.625
N9475 X207.986 Y32.443
N9480 X208.147 Y32.294
N9485 X208.367 Y32.134
N9490 X208.488 Y32.031
N9495 X208.55 Y31.974
N9500 X209.654 Y30.925
N9505 G3 X210.297 Y31.094 I0.265 J0.299
N9510 G1 X210.323 Y31.168 Z-3.482
N9515 X210.347 Y31.238 Z-3.46
N9520 X210.37 Y31.304 Z-3.423
N9525 X210.39 Y31.361 Z-3.373
N9530 X210.406 Y31.408 Z-3.312
N9535 X210.418 Y31.443 Z-3.243
N9540 X210.425 Y31.465 Z-3.168
N9545 X210.428 Y31.472 Z-3.09
N9550 G0 Z5.
N9555 G1 X210.369 Y132.644 F5000.
N9560 G0 Z-2.69
N9565 G1 Z-3.09 F500.
N9570 X210.361 Y132.643 Z-3.168
N9575 X210.339 Y132.637 Z-3.243
N9580 X210.303 Y132.629 Z-3.312
N9585 X210.255 Y132.617 Z-3.373
N9590 X210.196 Y132.603 Z-3.423
N9595 X210.128 Y132.587 Z-3.46
N9600 X210.055 Y132.569 Z-3.482
N9605 X209.98 Y132.551 Z-3.49
N9610 G3 X209.285 Y132.184 I0.369 J-1.539
N9615 G1 X208.734 Y131.649 F1000.
N9620 X208.55 Y131.472
N9625 X208.357 Y131.324
N9630 X207.999 Y131.055
N9635 X207.841 Y130.928
N9640 X207.701 Y130.796
N9645 X207.552 Y130.631
N9650 X207.406 Y130.441
N9655 X207.245 Y130.192
N9660 X207.081 Y129.886
N9665 X206.911 Y129.499
N9670 X206.738 Y129.001
N9675 X206.562 Y128.317
N9680 X206.424 Y127.521
N9685 X206.335 Y126.717
N9690 X206.278 Y125.911
N9695 X206.242 Y125.104
N9700 X206.218 Y124.296
N9705 X206.203 Y123.488
N9710 X206.193 Y122.679
N9715 X206.187 Y121.871
N9720 X206.183 Y121.063
N9725 X206.179 Y119.446
N9730 X206.176 Y116.214
N9735 X206.171 Y81.459
N9740 X206.164 Y34.582
N9745 X206.172 Y34.141
N9750 X206.202 Y33.923
N9755 X206.283 Y33.718
N9760 X206.409 Y33.537
N9765 X206.574 Y33.391
N9770 X207.816 Y32.531
N9775 X208.005 Y32.398
N9780 X208.147 Y32.294
N9785 G3 X208.763 Y32.545 I0.224 J0.331
N9790 G1 X208.779 Y32.621 Z-3.482
N9795 X208.794 Y32.695 Z-3.46
N9800 X208.808 Y32.763 Z-3.423
N9805 X208.82 Y32.822 Z-3.373
N9810 X208.83 Y32.871 Z-3.312
N9815 X208.838 Y32.907 Z-3.243
N9820 X208.842 Y32.929 Z-3.168
N9825 X208.844 Y32.937 Z-3.09
N9830 G0 Z5.
N9835 G1 X209.138 Y131.353 F5000.
N9840 G0 Z-2.69
N9845 G1 Z-3.09 F500.
N9850 X209.131 Y131.352 Z-3.168
N9855 X209.108 Y131.35 Z-3.243
N9860 X209.071 Y131.347 Z-3.312
N9865 X209.022 Y131.342 Z-3.373
N9870 X208.961 Y131.337 Z-3.423
N9875 X208.892 Y131.331 Z-3.46
N9880 X208.818 Y131.324 Z-3.482
N9885 X208.74 Y131.317 Z-3.49
N9890 G3 X207.999 Y131.055 I0.141 J-1.576
N9895 G1 X207.816 Y130.923 F1000.
N9900 X206.53 Y130.014
N9905 X206.339 Y129.864
N9910 X206.197 Y129.733
N9915 X206.047 Y129.571
N9920 X205.881 Y129.358
N9925 X205.714 Y129.105
N9930 X205.542 Y128.793
N9935 X205.363 Y128.395
N9940 X205.181 Y127.885
N9945 X204.999 Y127.208
N9950 X204.853 Y126.413
N9955 X204.757 Y125.611
N9960 X204.694 Y124.805
N9965 X204.653 Y123.998
N9970 X204.626 Y123.19
N9975 X204.609 Y122.382
N9980 X204.597 Y121.574
N9985 X204.59 Y120.766
N9990 X204.585 Y119.957
N9995 X204.582 Y119.149
N10000 X204.578 Y117.533
N10005 X204.576 Y114.3
N10010 X204.57 Y80.354
N10015 X204.564 Y35.901
N10020 X204.571 Y35.16
N10025 X204.587 Y34.981
N10030 X204.639 Y34.748
N10035 X204.749 Y34.535
N10040 X204.909 Y34.357
N10045 X205.109 Y34.226
N10050 X205.796 Y33.892
N10055 X205.979 Y33.786
N10060 X206.153 Y33.683
N10065 X206.574 Y33.391
N10070 G3 X207.184 Y33.657 I0.216 J0.337
N10075 G1 X207.198 Y33.734 Z-3.482
N10080 X207.211 Y33.808 Z-3.46
N10085 X207.223 Y33.876 Z-3.423
N10090 X207.234 Y33.935 Z-3.373
N10095 X207.243 Y33.984 Z-3.312
N10100 X207.249 Y34.021 Z-3.243
N10105 X207.253 Y34.043 Z-3.168
N10110 X207.255 Y34.051 Z-3.09
N10115 G0 Z5.
N10120 G1 X207.672 Y130.3 F5000.
N10125 G0 Z-2.69
N10130 G1 Z-3.09 F500.
N10135 X207.664 Z-3.168
N10140 X207.642 Y130.298 Z-3.243
N10145 X207.605 Y130.295 Z-3.312
N10150 X207.555 Y130.291 Z-3.373
N10155 X207.495 Y130.286 Z-3.423
N10160 X207.426 Y130.281 Z-3.46
N10165 X207.351 Y130.275 Z-3.482
N10170 X207.273 Y130.269 Z-3.49
N10175 G3 X206.53 Y130.014 I0.125 J-1.578
N10180 G1 X206.307 Y129.856 F1000.
N10185 X206.163 Y129.756
N10190 X205.979 Y129.655
N10195 X205.612 Y129.46
N10200 X205.428 Y129.367
N10205 X205.304 Y129.305
N10210 X205.11 Y129.197
N10215 X204.98 Y129.11
N10220 X204.833 Y128.993
N10225 X204.668 Y128.839
N10230 X204.511 Y128.667
N10235 X204.339 Y128.445
N10240 X204.153 Y128.162
N10245 X203.976 Y127.836
N10250 X203.784 Y127.405
N10255 X203.596 Y126.868
N10260 X203.405 Y126.144
N10265 X203.262 Y125.349
N10270 X203.167 Y124.546
N10275 X203.103 Y123.741
N10280 X203.061 Y122.933
N10285 X203.032 Y122.126
N10290 X203.013 Y121.318
N10295 X203. Y120.51
N10300 X202.992 Y119.701
N10305 X202.986 Y118.893
N10310 X202.983 Y118.085
N10315 X202.978 Y116.468
N10320 X202.976 Y113.236
N10325 X202.97 Y79.29
N10330 X202.964 Y37.261
N10335 X202.967 Y36.453
N10340 X202.991 Y35.88
N10345 X203.012 Y35.71
N10350 X203.072 Y35.477
N10355 X203.188 Y35.268
N10360 X203.355 Y35.096
N10365 X203.559 Y34.971
N10370 X203.775 Y34.873
N10375 X205.109 Y34.226
N10380 G3 X205.671 Y34.581 I0.162 J0.366
N10385 G1 X205.673 Y34.659 Z-3.482
N10390 X205.675 Y34.734 Z-3.46
N10395 X205.676 Y34.804 Z-3.423
N10400 X205.678 Y34.864 Z-3.373
N10405 X205.679 Y34.914 Z-3.312
N10410 X205.68 Y34.951 Z-3.243
N10415 X205.681 Y34.974 Z-3.168
N10420 Y34.981 Z-3.09
N10425 G0 Z5.
N10430 G1 X206.476 Y129.411 F5000.
N10435 G0 Z-2.69
N10440 G1 Z-3.09 F500.
N10445 X206.468 Z-3.168
N10450 X206.446 Y129.413 Z-3.243
N10455 X206.409 Y129.416 Z-3.312
N10460 X206.359 Y129.42 Z-3.373
N10465 X206.299 Y129.424 Z-3.423
N10470 X206.23 Y129.43 Z-3.46
N10475 X206.155 Y129.435 Z-3.482
N10480 X206.077 Y129.441 Z-3.49
N10485 G3 X205.304 Y129.305 I-0.121 J-1.578
N10490 G1 X203.821 Y128.571 F1000.
N10495 X203.619 Y128.458
N10500 X203.467 Y128.357
N10505 X203.319 Y128.239
N10510 X203.154 Y128.085
N10515 X202.969 Y127.883
N10520 X202.797 Y127.661
N10525 X202.71 Y127.528
N10530 X202.627 Y127.368
N10535 X202.575 Y127.196
N10540 X202.558 Y127.017
N10545 G3 X203.259 Y126.767 I0.4 J0.014
N10550 G1 X204.287 Y127.943
N10555 G3 X204.385 Y128.22 I-0.301 J0.263
N10560 X203.821 Y128.571 I-0.4 J-0.013 F500.
N10565 G1 X203.775 Y128.549 F1000.
N10570 X203.592 Y128.47
N10575 X203.224 Y128.318
N10580 X203.041 Y128.254
N10585 X202.857 Y128.196
N10590 X202.811 Y128.18
N10595 X202.765 Y128.157
N10600 X202.719 Y128.125
N10605 X202.674 Y128.083
N10610 X202.646 Y128.052
N10615 X202.623 Y128.021
N10620 X202.597 Y127.975
N10625 X202.579 Y127.929
N10630 X202.566 Y127.883
N10635 X202.559 Y127.837
N10640 X202.558 Y127.653
N10645 Y35.61
N10650 X202.562 Y35.564
N10655 X202.571 Y35.518
N10660 X202.586 Y35.473
N10665 X202.607 Y35.429
N10670 X202.635 Y35.384
N10675 X202.678 Y35.335
N10680 X202.723 Y35.295
N10685 X202.768 Y35.265
N10690 X202.812 Y35.243
N10695 X202.857 Y35.227
N10700 X203.17 Y35.13
N10705 X203.224 Y35.113
N10710 X203.408 Y35.038
N10715 X203.559 Y34.971
N10720 G3 X204.109 Y35.346 I0.15 J0.371
N10725 G1 X204.108 Y35.424 Z-3.482
N10730 X204.107 Y35.499 Z-3.46
N10735 Y35.568 Z-3.423
N10740 X204.106 Y35.629 Z-3.373
N10745 Y35.678 Z-3.312
N10750 X204.105 Y35.715 Z-3.243
N10755 Y35.738 Z-3.168
N10760 Y35.746 Z-3.09
N10765 G0 Z5.
N10770 G1 X214.162 Y10.03 F5000.
N10775 G0 Z-2.69
N10780 G1 Z-3.09 F500.
N10785 X214.156 Y10.025 Z-3.168
N10790 X214.137 Y10.012 Z-3.243
N10795 X214.107 Y9.991 Z-3.312
N10800 X214.066 Y9.962 Z-3.373
N10805 X214.017 Y9.927 Z-3.423
N10810 X213.96 Y9.887 Z-3.46
N10815 X213.899 Y9.844 Z-3.482
N10820 X213.835 Y9.799 Z-3.49
N10825 G3 X213.325 Y9.201 I0.912 J-1.293
N10830 G1 X213.142 Y8.79 F1000.
N10835 X212.896 Y8.355
N10840 X212.79 Y8.171
N10845 X211.959 Y6.887
N10850 X211.814 Y6.637
N10855 X211.672 Y6.337
N10860 X211.521 Y5.941
N10865 X211.295 Y5.165
N10870 X210.879 Y4.472
N10875 X210.272 Y3.938
N10880 X209.559 Y3.557
N10885 X208.855 Y3.317
N10890 X208.752 Y3.275
N10895 X208.654 Y3.22
N10900 X208.563 Y3.154
N10905 G3 X209.11 Y2.573 I0.254 J-0.309
N10910 G1 X213.024 Y6.768
N10915 G3 X212.554 Y7.399 I-0.292 J0.273
N10920 G1 X212.547 Y7.395
N10925 G3 X211.959 Y6.887 I0.71 J-1.414 F500.
N10930 G1 X211.602 Y6.336 F1000.
N10935 X211.489 Y6.177
N10940 X211.305 Y5.953
N10945 X211.166 Y5.785
N10950 X209.836 Y4.293
N10955 X209.692 Y4.133
N10960 X209.652 Y4.09
N10965 X209.51 Y3.95
N10970 X209.285 Y3.755
N10975 X209.083 Y3.583
N10980 X207.448 Y2.237
N10985 X207.278 Y2.115
N10990 X206.898 Y1.879
N10995 X206.683 Y1.747
N11000 X205.608 Y1.111
N11005 G3 X205.595 Y0.446 I0.216 J-0.337
N11010 G1 X205.659 Y0.401 Z-3.482
N11015 X205.721 Y0.358 Z-3.46
N11020 X205.777 Y0.319 Z-3.423
N11025 X205.827 Y0.284 Z-3.373
N11030 X205.868 Y0.255 Z-3.312
N11035 X205.898 Y0.234 Z-3.243
N11040 X205.917 Y0.221 Z-3.168
N11045 X205.923 Y0.217 Z-3.09
N11050 G0 Z5.
N11055 G1 X189.386 Y-0.326 F5000.
N11060 G0 Z-2.69
N11065 G1 Z-3.09 F500.
N11070 X189.381 Y-0.32 Z-3.168
N11075 X189.368 Y-0.302 Z-3.243
N11080 X189.345 Y-0.272 Z-3.312
N11085 X189.316 Y-0.233 Z-3.373
N11090 X189.279 Y-0.184 Z-3.423
N11095 X189.238 Y-0.129 Z-3.46
N11100 X189.192 Y-0.069 Z-3.482
N11105 X189.145 Y-0.007 Z-3.49
N11110 G3 X188.532 Y0.484 I-1.265 J-0.952
N11115 G1 X188.165 Y0.635 F1000.
N11120 X187.614 Y0.939
N11125 X187.43 Y1.048
N11130 X186.145 Y1.823
N11135 X185.798 Y2.009
N11140 X185.469 Y2.153
N11145 X185.029 Y2.304
N11150 X184.423 Y2.46
N11155 X183.626 Y2.597
N11160 X182.822 Y2.679
N11165 X182.015 Y2.728
N11170 X181.208 Y2.757
N11175 X180.4 Y2.775
N11180 X179.591 Y2.786
N11185 X178.783 Y2.792
N11190 X177.975 Y2.796
N11195 X176.359 Y2.8
N11200 X173.126 Y2.802
N11205 X135.947 Y2.805
N11210 X85.836 Y2.807
N11215 X35.726 Y2.81
N11220 X29.858
N11225 X29.64 Y2.784
N11230 X29.434 Y2.708
N11235 X29.251 Y2.586
N11240 X28.914 Y2.298
N11245 X28.755 Y2.168
N11250 X28.682 Y2.115
N11255 X28.571 Y2.04
N11260 X28.02 Y1.696
N11265 X27.01 Y1.07
N11270 G3 Y0.405 I0.222 J-0.332
N11275 G1 X27.075 Y0.362 Z-3.482
N11280 X27.137 Y0.32 Z-3.46
N11285 X27.195 Y0.282 Z-3.423
N11290 X27.245 Y0.248 Z-3.373
N11295 X27.287 Y0.221 Z-3.312
N11300 X27.317 Y0.2 Z-3.243
N11305 X27.336 Y0.187 Z-3.168
N11310 X27.343 Y0.183 Z-3.09
N11315 G0 Z5.
N11320 G1 X186.865 Y0.892 F5000.
N11325 G0 Z-2.69
N11330 G1 Z-3.09 F500.
N11335 X186.861 Y0.898 Z-3.168
N11340 X186.851 Y0.919 Z-3.243
N11345 X186.833 Y0.951 Z-3.312
N11350 X186.81 Y0.995 Z-3.373
N11355 X186.781 Y1.048 Z-3.423
N11360 X186.748 Y1.109 Z-3.46
N11365 X186.713 Y1.175 Z-3.482
N11370 X186.676 Y1.244 Z-3.49
N11375 G3 X186.145 Y1.823 I-1.395 J-0.748
N11380 G1 X185.778 Y2.044 F1000.
N11385 X185.594 Y2.163
N11390 X185.41 Y2.3
N11395 X185.186 Y2.482
N11400 X184.308 Y3.215
N11405 X184.189 Y3.306
N11410 X183.965 Y3.446
N11415 X183.678 Y3.596
N11420 X183.318 Y3.748
N11425 X182.839 Y3.908
N11430 X182.173 Y4.07
N11435 X181.375 Y4.199
N11440 X180.571 Y4.277
N11445 X179.764 Y4.325
N11450 X178.956 Y4.355
N11455 X178.148 Y4.373
N11460 X177.34 Y4.384
N11465 X176.532 Y4.391
N11470 X175.724 Y4.396
N11475 X174.916 Y4.398
N11480 X173.299 Y4.401
N11485 X168.45 Y4.403
N11490 X134.504 Y4.405
N11495 X84.393 Y4.407
N11500 X34.283 Y4.41
N11505 X31.683
N11510 X31.432 Y4.376
N11515 X31.201 Y4.276
N11520 X31.004 Y4.118
N11525 X30.959 Y4.07
N11530 X30.833 Y3.95
N11535 X30.408 Y3.577
N11540 X29.251 Y2.586
N11545 G3 X29.353 Y1.929 I0.27 J-0.295
N11550 G1 X29.424 Y1.896 Z-3.482
N11555 X29.492 Y1.864 Z-3.46
N11560 X29.554 Y1.835 Z-3.423
N11565 X29.609 Y1.809 Z-3.373
N11570 X29.654 Y1.788 Z-3.312
N11575 X29.688 Y1.773 Z-3.243
N11580 X29.708 Y1.763 Z-3.168
N11585 X29.715 Y1.76 Z-3.09
N11590 G0 Z5.
N11595 G1 X184.877 Y2.185 F5000.
N11600 G0 Z-2.69
N11605 G1 Z-3.09 F500.
N11610 X184.875 Y2.192 Z-3.168
N11615 X184.867 Y2.214 Z-3.243
N11620 X184.855 Y2.249 Z-3.312
N11625 X184.838 Y2.295 Z-3.373
N11630 X184.818 Y2.353 Z-3.423
N11635 X184.795 Y2.418 Z-3.46
N11640 X184.771 Y2.489 Z-3.482
N11645 X184.745 Y2.562 Z-3.49
N11650 G3 X184.308 Y3.215 I-1.493 J-0.525
N11655 G1 X183.649 Y3.766 F1000.
N11660 X183.39 Y3.987
N11665 X183.247 Y4.133
N11670 X183.076 Y4.317
N11675 X182.915 Y4.501
N11680 X182.81 Y4.608
N11685 X182.658 Y4.739
N11690 X182.461 Y4.882
N11695 X182.21 Y5.035
N11700 X181.906 Y5.189
N11705 X181.506 Y5.352
N11710 X180.987 Y5.517
N11715 X180.257 Y5.686
N11720 X179.457 Y5.804
N11725 X178.653 Y5.878
N11730 X177.846 Y5.925
N11735 X177.038 Y5.954
N11740 X176.23 Y5.972
N11745 X175.422 Y5.983
N11750 X174.614 Y5.991
N11755 X173.805 Y5.995
N11760 X172.997 Y5.998
N11765 X171.381 Y6.001
N11770 X167.339 Y6.003
N11775 X132.585 Y6.005
N11780 X82.475 Y6.007
N11785 X33.172 Y6.01
N11790 X33.031 Y6.007
N11795 X32.774 Y5.964
N11800 X32.539 Y5.853
N11805 X32.344 Y5.681
N11810 X31.019 Y4.133
N11815 X31.004 Y4.118
N11820 G3 X31.175 Y3.475 I0.3 J-0.264
N11825 G1 X31.249 Y3.45 Z-3.482
N11830 X31.32 Y3.425 Z-3.46
N11835 X31.385 Y3.403 Z-3.423
N11840 X31.442 Y3.383 Z-3.373
N11845 X31.489 Y3.367 Z-3.312
N11850 X31.524 Y3.355 Z-3.243
N11855 X31.546 Y3.348 Z-3.168
N11860 X31.553 Y3.345 Z-3.09
N11865 G0 Z5.
N11870 G1 X183.319 Y3.395 F5000.
N11875 G0 Z-2.69
N11880 G1 Z-3.09 F500.
N11885 X183.317 Y3.403 Z-3.168
N11890 X183.313 Y3.425 Z-3.243
N11895 X183.307 Y3.461 Z-3.312
N11900 X183.297 Y3.51 Z-3.373
N11905 X183.286 Y3.57 Z-3.423
N11910 X183.274 Y3.638 Z-3.46
N11915 X183.26 Y3.712 Z-3.482
N11920 X183.246 Y3.788 Z-3.49
N11925 G3 X182.915 Y4.501 I-1.556 J-0.29
N11930 G1 X181.625 Y5.969 F1000.
N11935 X181.515 Y6.086
N11940 X181.358 Y6.228
N11945 X181.153 Y6.385
N11950 X180.917 Y6.538
N11955 X180.613 Y6.702
N11960 X180.231 Y6.87
N11965 X179.728 Y7.044
N11970 X179.057 Y7.218
N11975 X178.261 Y7.357
N11980 X177.458 Y7.446
N11985 X176.652 Y7.502
N11990 X175.844 Y7.539
N11995 X175.036 Y7.562
N12000 X174.228 Y7.577
N12005 X173.42 Y7.586
N12010 X172.612 Y7.592
N12015 X171.804 Y7.596
N12020 X170.187 Y7.6
N12025 X166.954 Y7.602
N12030 X131.392 Y7.605
N12035 X81.281 Y7.607
N12040 X34.403 Y7.61
N12045 X34.144 Y7.6
N12050 X33.919 Y7.563
N12055 X33.71 Y7.474
N12060 X33.528 Y7.336
N12065 X33.386 Y7.158
N12070 X32.979 Y6.5
N12075 X32.875 Y6.336
N12080 X32.795 Y6.225
N12085 X32.434 Y5.785
N12090 X32.344 Y5.681
N12095 G3 X32.546 Y5.047 I0.313 J-0.249
N12100 G1 X32.621 Y5.025 Z-3.482
N12105 X32.693 Y5.004 Z-3.46
N12110 X32.76 Y4.985 Z-3.423
N12115 X32.818 Y4.968 Z-3.373
N12120 X32.866 Y4.955 Z-3.312
N12125 X32.901 Y4.944 Z-3.243
N12130 X32.923 Y4.938 Z-3.168
N12135 X32.931 Y4.936 Z-3.09
N12140 G0 Z5.
N12145 G1 X182.012 Y4.857 F5000.
N12150 G0 Z-2.69
N12155 G1 Z-3.09 F500.
N12160 X182.01 Y4.865 Z-3.168
N12165 X182.007 Y4.887 Z-3.243
N12170 X182. Y4.924 Z-3.312
N12175 X181.992 Y4.973 Z-3.373
N12180 X181.982 Y5.032 Z-3.423
N12185 X181.97 Y5.101 Z-3.46
N12190 X181.958 Y5.175 Z-3.482
N12195 X181.945 Y5.251 Z-3.49
N12200 G3 X181.625 Y5.969 I-1.56 J-0.266
N12205 G1 X181.554 Y6.053 F1000.
N12210 X181.337 Y6.336
N12215 X181.213 Y6.519
N12220 X180.745 Y7.254
N12225 X180.658 Y7.376
N12230 X180.532 Y7.523
N12235 X180.388 Y7.665
N12240 X180.198 Y7.825
N12245 X179.957 Y7.997
N12250 X179.681 Y8.161
N12255 X179.313 Y8.343
N12260 X178.872 Y8.518
N12265 X178.276 Y8.701
N12270 X177.486 Y8.875
N12275 X176.686 Y8.988
N12280 X175.881 Y9.063
N12285 X175.075 Y9.111
N12290 X174.267 Y9.143
N12295 X173.459 Y9.164
N12300 X172.651 Y9.178
N12305 X171.843 Y9.186
N12310 X171.035 Y9.192
N12315 X170.226 Y9.196
N12320 X168.61 Y9.2
N12325 X165.377 Y9.203
N12330 X130.623 Y9.205
N12335 X80.512 Y9.207
N12340 X36.059 Y9.21
N12345 X35.251 Y9.206
N12350 X35.083 Y9.193
N12355 X34.858 Y9.148
N12360 X34.65 Y9.05
N12365 X34.472 Y8.905
N12370 X34.333 Y8.722
N12375 X34.081 Y8.287
N12380 X34.013 Y8.171
N12385 X33.386 Y7.158
N12390 G3 X33.683 Y6.563 I0.347 J-0.198
N12395 G1 X33.76 Y6.553 Z-3.482
N12400 X33.835 Y6.544 Z-3.46
N12405 X33.903 Y6.535 Z-3.423
N12410 X33.963 Y6.527 Z-3.373
N12415 X34.013 Y6.521 Z-3.312
N12420 X34.049 Y6.516 Z-3.243
N12425 X34.072 Y6.514 Z-3.168
N12430 X34.08 Y6.513 Z-3.09
N12435 G0 Z5.
N12440 G1 X180.975 Y6.099 F5000.
N12445 G0 Z-2.69
N12450 G1 Z-3.09 F500.
N12455 Y6.107 Z-3.168
N12460 X180.974 Y6.13 Z-3.243
N12465 X180.973 Y6.167 Z-3.312
N12470 X180.972 Y6.216 Z-3.373
N12475 X180.97 Y6.277 Z-3.423
N12480 X180.968 Y6.346 Z-3.46
N12485 X180.966 Y6.421 Z-3.482
N12490 X180.963 Y6.499 Z-3.49
N12495 G3 X180.745 Y7.254 I-1.582 J-0.048
N12500 G1 X180.161 Y8.171 F1000.
N12505 X180.051 Y8.355
N12510 X179.901 Y8.608
N12515 X179.757 Y8.825
N12520 X179.648 Y8.964
N12525 X179.51 Y9.113
N12530 X179.329 Y9.28
N12535 X179.109 Y9.451
N12540 X179.046 Y9.494
N12545 X178.885 Y9.578
N12550 X178.712 Y9.63
N12555 X178.531 Y9.648
N12560 G3 X178.29 Y8.94 I0.014 J-0.4
N12565 G1 X179.294 Y8.108
N12570 G3 X179.593 Y8.018 I0.255 J0.308
N12575 X179.901 Y8.608 I-0.043 J0.398 F500.
N12580 G1 X179.833 Y8.722 F1000.
N12585 X179.741 Y8.905
N12590 X179.533 Y9.379
N12595 X179.515 Y9.417
N12600 X179.492 Y9.456
N12605 X179.461 Y9.497
N12610 X179.421 Y9.538
N12615 X179.385 Y9.568
N12620 X179.35 Y9.592
N12625 X179.289 Y9.622
N12630 X179.228 Y9.64
N12635 X179.166 Y9.648
N12640 X175.86
N12645 X34.999
N12650 X34.962 Y9.645
N12655 X34.926 Y9.64
N12660 X34.871 Y9.624
N12665 X34.815 Y9.599
N12670 X34.778 Y9.575
N12675 X34.74 Y9.545
N12680 X34.698 Y9.5
N12685 X34.664 Y9.456
N12690 X34.632 Y9.398
N12695 X34.422 Y8.905
N12700 X34.333 Y8.722
N12705 G3 X34.359 Y8.352 I0.366 J-0.16
N12710 G1 X34.401 Y8.309 Z-3.485
N12715 X34.443 Y8.266 Z-3.471
N12720 X34.482 Y8.226 Z-3.448
N12725 X34.533 Y8.207 Z-3.416
N12730 X34.578 Y8.191 Z-3.375
N12735 X34.617 Y8.176 Z-3.327
N12740 X34.648 Y8.165 Z-3.273
N12745 X34.672 Y8.163 Z-3.215
N12750 X34.687 Y8.162 Z-3.153
N12755 X34.692 Z-3.09
N12760 G0 Z5.
N12765 G1 X81.251 Y83.417 F5000.
N12770 G0 Z2.5
N12775 G3 X81.408 Y83.364 Z2.089 I-0.522 J-1.827 F500.
N12780 X81.56 Y83.298 Z1.678 I-0.679 J-1.774
N12785 X81.706 Y83.219 Z1.267 I-0.832 J-1.708
N12790 X81.844 Y83.128 Z0.856 I-0.977 J-1.629
N12795 X81.974 Y83.025 Z0.445 I-1.116 J-1.538
N12800 X82.094 Y82.911 Z0.033 I-1.245 J-1.435
N12805 X82.204 Y82.787 Z-0.378 I-1.366 J-1.321
N12810 X82.303 Y82.653 Z-0.789 I-1.476 J-1.197
N12815 X82.39 Y82.512 Z-1.2 I-1.574 J-1.064
N12820 X82.464 Y82.364 Z-1.611 I-1.661 J-0.922
N12825 X82.628 Y81.59 Z-2. I-1.735 J-0.774
N12830 X78.828 I-1.9 J0.
N12835 X82.628 I1.9 J0.
N12840 G1 X82.633 Y81.792 F1000.
N12845 X82.796 Y82.463
N12850 X82.819 Y82.611
N12855 X82.822 Y82.761
N12860 X82.806 Y82.91
N12865 X82.773 Y83.056
N12870 X82.727 Y83.199
N12875 X82.667 Y83.336
N12880 X82.595 Y83.468
N12885 X82.511 Y83.595
N12890 X82.413 Y83.721
N12895 X82.301 Y83.843
N12900 X82.174 Y83.96
N12905 X82.034 Y84.07
N12910 X81.881 Y84.172
N12915 X81.716 Y84.264
N12920 X81.538 Y84.345
N12925 X81.351 Y84.412
N12930 X81.154 Y84.466
N12935 X80.949 Y84.504
N12940 X80.739 Y84.526
N12945 X80.523 Y84.531
N12950 X80.305 Y84.519
N12955 X80.086 Y84.489
N12960 X79.867 Y84.441
N12965 X79.651 Y84.374
N12970 X79.438 Y84.29
N12975 X79.232 Y84.189
N12980 X79.033 Y84.07
N12985 X78.842 Y83.934
N12990 X78.663 Y83.783
N12995 X78.495 Y83.617
N13000 X78.34 Y83.438
N13005 X78.2 Y83.246
N13010 X78.075 Y83.042
N13015 X77.966 Y82.829
N13020 X77.875 Y82.607
N13025 X77.802 Y82.378
N13030 X77.747 Y82.143
N13035 X77.711 Y81.904
N13040 X77.694 Y81.663
N13045 X77.697 Y81.421
N13050 X77.72 Y81.18
N13055 X77.761 Y80.94
N13060 X77.822 Y80.705
N13065 X77.901 Y80.476
N13070 X77.999 Y80.253
N13075 X78.115 Y80.038
N13080 X78.247 Y79.834
N13085 X78.395 Y79.641
N13090 X78.559 Y79.46
N13095 X78.736 Y79.293
N13100 X78.926 Y79.14
N13105 X79.128 Y79.003
N13110 X79.341 Y78.883
N13115 X79.562 Y78.781
N13120 X79.791 Y78.696
N13125 X80.026 Y78.63
N13130 X80.266 Y78.583
N13135 X80.508 Y78.556
N13140 X80.752 Y78.548
N13145 X80.996 Y78.559
N13150 X81.239 Y78.591
N13155 X81.478 Y78.641
N13160 X81.712 Y78.711
N13165 X81.94 Y78.799
N13170 X82.16 Y78.905
N13175 X82.371 Y79.029
N13180 X82.571 Y79.169
N13185 X82.759 Y79.324
N13190 X82.934 Y79.494
N13195 X83.095 Y79.678
N13200 X83.241 Y79.874
N13205 X83.412 Y80.147
N13210 X83.664 Y80.633
N13215 X83.829 Y81.026
N13220 X83.939 Y81.36
N13225 X84.013 Y81.665
N13230 X84.059 Y81.954
N13235 X84.08 Y82.233
N13240 X84.079 Y82.504
N13245 X84.057 Y82.769
N13250 X84.014 Y83.029
N13255 X83.95 Y83.283
N13260 X83.867 Y83.532
N13265 X83.763 Y83.774
N13270 X83.639 Y84.009
N13275 X83.495 Y84.235
N13280 X83.333 Y84.451
N13285 X83.151 Y84.655
N13290 X82.952 Y84.846
N13295 X82.734 Y85.023
N13300 X82.5 Y85.184
N13305 X82.251 Y85.328
N13310 X81.987 Y85.453
N13315 X81.71 Y85.558
N13320 X81.421 Y85.642
N13325 X81.124 Y85.702
N13330 X80.819 Y85.74
N13335 X80.508 Y85.752
N13340 X80.195 Y85.74
N13345 X79.88 Y85.702
N13350 X79.567 Y85.638
N13355 X79.258 Y85.549
N13360 X78.955 Y85.435
N13365 X78.66 Y85.296
N13370 X78.375 Y85.132
N13375 X78.103 Y84.945
N13380 X77.845 Y84.736
N13385 X77.604 Y84.505
N13390 X77.381 Y84.255
N13395 X77.179 Y83.987
N13400 X76.997 Y83.702
N13405 X76.839 Y83.403
N13410 X76.705 Y83.091
N13415 X76.596 Y82.769
N13420 X76.513 Y82.438
N13425 X76.456 Y82.101
N13430 X76.427 Y81.76
N13435 X76.426 Y81.417
N13440 X76.452 Y81.075
N13445 X76.505 Y80.735
N13450 X76.586 Y80.4
N13455 X76.693 Y80.073
N13460 X76.826 Y79.755
N13465 X76.985 Y79.448
N13470 X77.168 Y79.155
N13475 X77.373 Y78.878
N13480 X77.601 Y78.618
N13485 X77.849 Y78.376
N13490 X78.115 Y78.156
N13495 X78.398 Y77.957
N13500 X78.697 Y77.782
N13505 X79.009 Y77.631
N13510 X79.331 Y77.506
N13515 X79.663 Y77.407
N13520 X80.002 Y77.334
N13525 X80.346 Y77.29
N13530 X80.692 Y77.273
N13535 X81.038 Y77.284
N13540 X81.383 Y77.322
N13545 X81.723 Y77.388
N13550 X82.057 Y77.482
N13555 X82.382 Y77.601
N13560 X82.697 Y77.747
N13565 X82.999 Y77.917
N13570 X83.286 Y78.111
N13575 X83.569 Y78.337
N13580 X83.873 Y78.623
N13585 X84.16 Y78.94
N13590 X84.432 Y79.293
N13595 X84.676 Y79.67
N13600 X84.886 Y80.058
N13605 X85.058 Y80.45
N13610 X85.195 Y80.844
N13615 X85.297 Y81.237
N13620 X85.366 Y81.63
N13625 X85.403 Y82.021
N13630 X85.408 Y82.408
N13635 X85.382 Y82.791
N13640 X85.326 Y83.169
N13645 X85.24 Y83.538
N13650 X85.125 Y83.899
N13655 X84.981 Y84.249
N13660 X84.81 Y84.588
N13665 X84.611 Y84.912
N13670 X84.387 Y85.22
N13675 X84.136 Y85.512
N13680 X83.861 Y85.784
N13685 X83.563 Y86.035
N13690 X83.244 Y86.263
N13695 X82.904 Y86.466
N13700 X82.546 Y86.643
N13705 X82.171 Y86.792
N13710 X81.783 Y86.911
N13715 X81.383 Y87.
N13720 X80.974 Y87.057
N13725 X80.559 Y87.08
N13730 X80.141 Y87.071
N13735 X79.722 Y87.027
N13740 X79.305 Y86.95
N13745 X78.893 Y86.838
N13750 X78.489 Y86.693
N13755 X78.096 Y86.515
N13760 X77.716 Y86.305
N13765 X77.353 Y86.065
N13770 X77.009 Y85.794
N13775 X76.686 Y85.496
N13780 X76.387 Y85.171
N13785 X76.114 Y84.822
N13790 X75.869 Y84.451
N13795 X75.654 Y84.061
N13800 X75.471 Y83.653
N13805 X75.32 Y83.231
N13810 X75.204 Y82.798
N13815 X75.122 Y82.355
N13820 X75.077 Y81.907
N13825 X75.067 Y81.456
N13830 X75.094 Y81.005
N13835 X75.157 Y80.557
N13840 X75.256 Y80.116
N13845 X75.39 Y79.683
N13850 X75.558 Y79.262
N13855 X75.76 Y78.855
N13860 X75.994 Y78.466
N13865 X76.258 Y78.097
N13870 X76.552 Y77.749
N13875 X76.872 Y77.427
N13880 X77.218 Y77.131
N13885 X77.586 Y76.864
N13890 X77.975 Y76.627
N13895 X78.381 Y76.422
N13900 X78.803 Y76.25
N13905 X79.237 Y76.112
N13910 X79.681 Y76.01
N13915 X80.132 Y75.944
N13920 X80.587 Y75.914
N13925 X81.043 Y75.921
N13930 X81.496 Y75.964
N13935 X81.945 Y76.044
N13940 X82.386 Y76.159
N13945 X82.817 Y76.31
N13950 X83.237 Y76.496
N13955 X83.655 Y76.723
N13960 X84.067 Y76.991
N13965 X84.468 Y77.3
N13970 X84.852 Y77.65
N13975 X85.213 Y78.035
N13980 X85.543 Y78.451
N13985 X85.839 Y78.891
N13990 X86.098 Y79.351
N13995 X86.316 Y79.827
N14000 X86.495 Y80.314
N14005 X86.632 Y80.81
N14010 X86.729 Y81.311
N14015 X86.784 Y81.814
N14020 X86.799 Y82.316
N14025 X86.773 Y82.814
N14030 X86.708 Y83.307
N14035 X86.604 Y83.791
N14040 X86.462 Y84.264
N14045 X86.282 Y84.725
N14050 X86.066 Y85.169
N14055 X85.815 Y85.595
N14060 X85.529 Y86.001
N14065 X85.21 Y86.384
N14070 X84.861 Y86.742
N14075 X84.481 Y87.072
N14080 X84.075 Y87.372
N14085 X83.643 Y87.641
N14090 X83.188 Y87.875
N14095 X82.713 Y88.073
N14100 X82.221 Y88.233
N14105 X81.714 Y88.354
N14110 X81.196 Y88.435
N14115 X80.671 Y88.473
N14120 X80.141 Y88.47
N14125 X79.611 Y88.423
N14130 X79.083 Y88.334
N14135 X78.561 Y88.202
N14140 X78.049 Y88.028
N14145 X77.55 Y87.812
N14150 X77.069 Y87.556
N14155 X76.608 Y87.261
N14160 X76.17 Y86.929
N14165 X75.759 Y86.561
N14170 X75.377 Y86.16
N14175 X75.028 Y85.729
N14180 X74.714 Y85.269
N14185 X74.436 Y84.785
N14190 X74.199 Y84.279
N14195 X74.002 Y83.754
N14200 X73.847 Y83.214
N14205 X73.736 Y82.663
N14210 X73.67 Y82.103
N14215 X73.649 Y81.54
N14220 X73.673 Y80.975
N14225 X73.742 Y80.414
N14230 X73.857 Y79.86
N14235 X74.015 Y79.316
N14240 X74.217 Y78.786
N14245 X74.461 Y78.274
N14250 X74.746 Y77.782
N14255 X75.069 Y77.315
N14260 X75.429 Y76.875
N14265 X75.823 Y76.465
N14270 X76.249 Y76.088
N14275 X76.703 Y75.747
N14280 X77.184 Y75.442
N14285 X77.688 Y75.178
N14290 X78.212 Y74.954
N14295 X78.752 Y74.773
N14300 X79.305 Y74.637
N14305 X79.867 Y74.545
N14310 X80.435 Y74.498
N14315 X81.005 Y74.497
N14320 X81.573 Y74.542
N14325 X82.136 Y74.632
N14330 X82.693 Y74.769
N14335 X83.244 Y74.951
N14340 X83.784 Y75.179
N14345 X84.312 Y75.455
N14350 X84.826 Y75.778
N14355 X85.322 Y76.148
N14360 X85.793 Y76.562
N14365 X86.234 Y77.017
N14370 X86.638 Y77.509
N14375 X87.002 Y78.032
N14380 X87.323 Y78.582
N14385 X87.598 Y79.154
N14390 X87.824 Y79.744
N14395 X88.002 Y80.346
N14400 X88.131 Y80.958
N14405 X88.209 Y81.575
N14410 X88.237 Y82.194
N14415 X88.216 Y82.81
N14420 X88.146 Y83.42
N14425 X88.027 Y84.021
N14430 X87.86 Y84.609
N14435 X87.647 Y85.182
N14440 X87.389 Y85.736
N14445 X87.087 Y86.269
N14450 X86.742 Y86.776
N14455 X86.357 Y87.255
N14460 X85.933 Y87.703
N14465 X85.473 Y88.117
N14470 X84.979 Y88.494
N14475 X84.455 Y88.832
N14480 X83.902 Y89.128
N14485 X83.324 Y89.38
N14490 X82.726 Y89.586
N14495 X82.11 Y89.744
N14500 X81.48 Y89.852
N14505 X80.84 Y89.91
N14510 X80.195 Y89.916
N14515 X79.549 Y89.871
N14520 X78.906 Y89.773
N14525 X78.27 Y89.623
N14530 X77.645 Y89.422
N14535 X77.037 Y89.17
N14540 X76.448 Y88.87
N14545 X75.884 Y88.522
N14550 X75.348 Y88.128
N14555 X74.843 Y87.692
N14560 X74.374 Y87.215
N14565 X73.943 Y86.7
N14570 X73.555 Y86.152
N14575 X73.21 Y85.572
N14580 X72.913 Y84.966
N14585 X72.665 Y84.336
N14590 X72.468 Y83.688
N14595 X72.323 Y83.025
N14600 X72.232 Y82.352
N14605 X72.195 Y81.672
N14610 X72.213 Y80.991
N14615 X72.286 Y80.313
N14620 X72.413 Y79.642
N14625 X72.593 Y78.984
N14630 X72.826 Y78.341
N14635 X73.11 Y77.719
N14640 X73.443 Y77.121
N14645 X73.823 Y76.551
N14650 X74.248 Y76.014
N14655 X74.715 Y75.512
N14660 X75.221 Y75.049
N14665 X75.762 Y74.629
N14670 X76.336 Y74.252
N14675 X76.938 Y73.923
N14680 X77.564 Y73.644
N14685 X78.212 Y73.415
N14690 X78.875 Y73.24
N14695 X79.551 Y73.117
N14700 X80.234 Y73.05
N14705 X80.921 Y73.038
N14710 X81.608 Y73.081
N14715 X82.291 Y73.179
N14720 X82.969 Y73.332
N14725 X83.637 Y73.542
N14730 X84.294 Y73.807
N14735 X84.935 Y74.128
N14740 X85.556 Y74.504
N14745 X86.151 Y74.933
N14750 X86.715 Y75.413
N14755 X87.242 Y75.939
N14760 X87.727 Y76.509
N14765 X88.165 Y77.117
N14770 X88.554 Y77.759
N14775 X88.889 Y78.429
N14780 X89.169 Y79.122
N14785 X89.391 Y79.833
N14790 X89.555 Y80.557
N14795 X89.661 Y81.29
N14800 X89.706 Y82.026
N14805 X89.693 Y82.761
N14810 X89.621 Y83.491
N14815 X89.491 Y84.212
N14820 X89.304 Y84.919
N14825 X89.06 Y85.608
N14830 X88.762 Y86.276
N14835 X88.412 Y86.917
N14840 X88.01 Y87.53
N14845 X87.559 Y88.109
N14850 X87.063 Y88.652
N14855 X86.523 Y89.155
N14860 X85.942 Y89.614
N14865 X85.324 Y90.026
N14870 X84.673 Y90.389
N14875 X83.992 Y90.699
N14880 X83.286 Y90.955
N14885 X82.559 Y91.154
N14890 X81.815 Y91.295
N14895 X81.059 Y91.376
N14900 X80.297 Y91.396
N14905 X79.532 Y91.354
N14910 X78.77 Y91.251
N14915 X78.017 Y91.087
N14920 X77.276 Y90.862
N14925 X76.554 Y90.577
N14930 X75.854 Y90.234
N14935 X75.182 Y89.835
N14940 X74.543 Y89.382
N14945 X73.941 Y88.878
N14950 X73.379 Y88.326
N14955 X72.863 Y87.729
N14960 X72.395 Y87.091
N14965 X71.979 Y86.416
N14970 X71.618 Y85.709
N14975 X71.314 Y84.974
N14980 X71.07 Y84.216
N14985 X70.888 Y83.44
N14990 X70.768 Y82.651
N14995 X70.711 Y81.853
N15000 X70.719 Y81.053
N15005 X70.791 Y80.255
N15010 X70.927 Y79.465
N15015 X71.126 Y78.688
N15020 X71.387 Y77.929
N15025 X71.709 Y77.192
N15030 X72.088 Y76.484
N15035 X72.524 Y75.808
N15040 X73.012 Y75.169
N15045 X73.551 Y74.571
N15050 X74.136 Y74.018
N15055 X74.763 Y73.513
N15060 X75.429 Y73.06
N15065 X76.13 Y72.663
N15070 X76.86 Y72.322
N15075 X77.616 Y72.041
N15080 X78.391 Y71.822
N15085 X79.182 Y71.666
N15090 X79.984 Y71.573
N15095 X80.791 Y71.546
N15100 X81.598 Y71.583
N15105 X82.4 Y71.684
N15110 X83.191 Y71.849
N15115 X83.967 Y72.076
N15120 X84.722 Y72.364
N15125 X85.453 Y72.709
N15130 X86.155 Y73.11
N15135 X86.823 Y73.564
N15140 X87.455 Y74.068
N15145 X88.047 Y74.619
N15150 X88.596 Y75.212
N15155 X89.099 Y75.845
N15160 X89.553 Y76.513
N15165 X89.956 Y77.214
N15170 X90.306 Y77.942
N15175 X90.601 Y78.695
N15180 X90.839 Y79.467
N15185 X91.019 Y80.255
N15190 X91.139 Y81.055
N15195 X91.198 Y81.861
N15200 X91.196 Y82.669
N15205 X91.133 Y83.475
N15210 X91.008 Y84.273
N15215 X90.822 Y85.06
N15220 X90.577 Y85.83
N15225 X90.273 Y86.579
N15230 X89.913 Y87.302
N15235 X89.499 Y87.996
N15240 X89.033 Y88.657
N15245 X88.519 Y89.281
N15250 X87.959 Y89.864
N15255 X87.357 Y90.403
N15260 X86.716 Y90.895
N15265 X86.04 Y91.338
N15270 X85.332 Y91.729
N15275 X84.598 Y92.066
N15280 X83.84 Y92.348
N15285 X83.064 Y92.574
N15290 X82.273 Y92.74
N15295 X81.472 Y92.846
N15300 X80.665 Y92.893
N15305 X79.857 Y92.879
N15310 X79.052 Y92.807
N15315 X78.255 Y92.676
N15320 X77.468 Y92.488
N15325 X76.698 Y92.244
N15330 X75.947 Y91.946
N15335 X75.219 Y91.594
N15340 X74.518 Y91.192
N15345 X73.849 Y90.738
N15350 X73.215 Y90.237
N15355 X72.619 Y89.691
N15360 X72.063 Y89.105
N15365 X71.55 Y88.48
N15370 X71.082 Y87.821
N15375 X70.662 Y87.131
N15380 X70.29 Y86.413
N15385 X69.971 Y85.67
N15390 X69.707 Y84.906
N15395 X69.499 Y84.125
N15400 X69.346 Y83.332
N15405 X69.25 Y82.529
N15410 X69.209 Y81.722
N15415 X69.225 Y80.914
N15420 X69.297 Y80.109
N15425 X69.425 Y79.311
N15430 X69.61 Y78.524
N15435 X69.851 Y77.753
N15440 X70.147 Y77.
N15445 X70.494 Y76.271
N15450 X70.891 Y75.566
N15455 X71.335 Y74.891
N15460 X71.825 Y74.249
N15465 X72.359 Y73.642
N15470 X72.935 Y73.075
N15475 X73.55 Y72.551
N15480 X74.201 Y72.071
N15485 X74.884 Y71.638
N15490 X75.594 Y71.253
N15495 X76.33 Y70.918
N15500 X77.087 Y70.635
N15505 X77.861 Y70.405
N15510 X78.651 Y70.231
N15515 X79.451 Y70.115
N15520 X80.257 Y70.055
N15525 X81.065 Y70.051
N15530 X81.871 Y70.102
N15535 X82.673 Y70.208
N15540 X83.465 Y70.369
N15545 X84.244 Y70.584
N15550 X85.006 Y70.854
N15555 X85.747 Y71.176
N15560 X86.465 Y71.548
N15565 X87.156 Y71.967
N15570 X87.817 Y72.431
N15575 X88.447 Y72.937
N15580 X89.043 Y73.484
N15585 X89.6 Y74.069
N15590 X90.117 Y74.691
N15595 X90.591 Y75.345
N15600 X91.021 Y76.03
N15605 X91.406 Y76.74
N15610 X91.744 Y77.474
N15615 X92.034 Y78.229
N15620 X92.275 Y79.
N15625 X92.465 Y79.786
N15630 X92.6 Y80.583
N15635 X92.682 Y81.387
N15640 X92.71 Y82.195
N15645 X92.685 Y83.002
N15650 X92.607 Y83.807
N15655 X92.476 Y84.604
N15660 X92.292 Y85.392
N15665 X92.057 Y86.165
N15670 X91.768 Y86.92
N15675 X91.429 Y87.653
N15680 X91.041 Y88.362
N15685 X90.608 Y89.045
N15690 X90.13 Y89.697
N15695 X89.612 Y90.316
N15700 X89.053 Y90.901
N15705 X88.458 Y91.448
N15710 X87.827 Y91.952
N15715 X87.163 Y92.413
N15720 X86.47 Y92.83
N15725 X85.752 Y93.2
N15730 X85.011 Y93.524
N15735 X84.251 Y93.799
N15740 X83.475 Y94.024
N15745 X82.686 Y94.199
N15750 X81.887 Y94.32
N15755 X81.081 Y94.387
N15760 X80.273 Y94.401
N15765 X79.466 Y94.364
N15770 X78.663 Y94.275
N15775 X77.866 Y94.135
N15780 X77.081 Y93.946
N15785 X76.308 Y93.709
N15790 X75.552 Y93.422
N15795 X74.817 Y93.087
N15800 X74.105 Y92.704
N15805 X73.419 Y92.277
N15810 X72.761 Y91.807
N15815 X72.135 Y91.297
N15820 X71.541 Y90.748
N15825 X70.983 Y90.164
N15830 X70.462 Y89.546
N15835 X69.981 Y88.896
N15840 X69.543 Y88.217
N15845 X69.149 Y87.511
N15850 X68.799 Y86.783
N15855 X68.496 Y86.033
N15860 X68.24 Y85.267
N15865 X68.032 Y84.486
N15870 X67.872 Y83.693
N15875 X67.763 Y82.893
N15880 X67.705 Y82.086
N15885 X67.698 Y81.278
N15890 X67.74 Y80.471
N15895 X67.832 Y79.668
N15900 X67.974 Y78.872
N15905 X68.165 Y78.087
N15910 X68.404 Y77.315
N15915 X68.69 Y76.559
N15920 X69.024 Y75.823
N15925 X69.403 Y75.109
N15930 X69.826 Y74.42
N15935 X70.29 Y73.759
N15940 X70.794 Y73.127
N15945 X71.336 Y72.527
N15950 X71.914 Y71.962
N15955 X72.526 Y71.434
N15960 X73.169 Y70.945
N15965 X73.842 Y70.498
N15970 X74.542 Y70.094
N15975 X75.266 Y69.733
N15980 X76.01 Y69.418
N15985 X76.772 Y69.148
N15990 X77.549 Y68.926
N15995 X78.338 Y68.753
N16000 X79.137 Y68.628
N16005 X79.942 Y68.554
N16010 X80.75 Y68.531
N16015 X81.557 Y68.558
N16020 X82.362 Y68.634
N16025 X83.161 Y68.759
N16030 X83.95 Y68.931
N16035 X84.728 Y69.152
N16040 X85.491 Y69.419
N16045 X86.236 Y69.732
N16050 X86.96 Y70.09
N16055 X87.661 Y70.493
N16060 X88.337 Y70.936
N16065 X88.986 Y71.418
N16070 X89.605 Y71.937
N16075 X90.193 Y72.492
N16080 X90.747 Y73.08
N16085 X91.266 Y73.7
N16090 X91.748 Y74.349
N16095 X92.19 Y75.025
N16100 X92.591 Y75.727
N16105 X92.951 Y76.451
N16110 X93.268 Y77.194
N16115 X93.542 Y77.955
N16120 X93.772 Y78.73
N16125 X93.955 Y79.517
N16130 X94.093 Y80.313
N16135 X94.184 Y81.116
N16140 X94.225 Y81.923
N16145 X94.219 Y82.732
N16150 X94.164 Y83.538
N16155 X94.062 Y84.34
N16160 X93.913 Y85.134
N16165 X93.718 Y85.919
N16170 X93.477 Y86.69
N16175 X93.19 Y87.446
N16180 X92.859 Y88.183
N16185 X92.484 Y88.899
N16190 X92.066 Y89.591
N16195 X91.608 Y90.257
N16200 X91.112 Y90.895
N16205 X90.58 Y91.503
N16210 X90.014 Y92.08
N16215 X89.414 Y92.622
N16220 X88.784 Y93.128
N16225 X88.126 Y93.597
N16230 X87.44 Y94.025
N16235 X86.73 Y94.411
N16240 X85.999 Y94.756
N16245 X85.249 Y95.058
N16250 X84.484 Y95.316
N16255 X83.704 Y95.53
N16260 X82.914 Y95.698
N16265 X82.114 Y95.819
N16270 X81.31 Y95.895
N16275 X80.502 Y95.922
N16280 X79.694 Y95.902
N16285 X78.889 Y95.835
N16290 X78.088 Y95.722
N16295 X77.295 Y95.565
N16300 X76.513 Y95.364
N16305 X75.742 Y95.119
N16310 X74.987 Y94.831
N16315 X74.25 Y94.5
N16320 X73.532 Y94.128
N16325 X72.838 Y93.714
N16330 X72.169 Y93.26
N16335 X71.527 Y92.769
N16340 X70.913 Y92.244
N16345 X70.329 Y91.685
N16350 X69.778 Y91.094
N16355 X69.26 Y90.474
N16360 X68.777 Y89.825
N16365 X68.331 Y89.151
N16370 X67.925 Y88.452
N16375 X67.56 Y87.731
N16380 X67.236 Y86.991
N16385 X66.954 Y86.233
N16390 X66.714 Y85.462
N16395 X66.517 Y84.678
N16400 X66.364 Y83.884
N16405 X66.256 Y83.083
N16410 X66.191 Y82.278
N16415 X66.172 Y81.47
N16420 X66.2 Y80.662
N16425 X66.272 Y79.857
N16430 X66.39 Y79.057
N16435 X66.552 Y78.265
N16440 X66.756 Y77.483
N16445 X67.004 Y76.714
N16450 X67.294 Y75.96
N16455 X67.625 Y75.222
N16460 X67.997 Y74.504
N16465 X68.408 Y73.809
N16470 X68.858 Y73.138
N16475 X69.345 Y72.493
N16480 X69.867 Y71.875
N16485 X70.422 Y71.288
N16490 X71.009 Y70.732
N16495 X71.625 Y70.209
N16500 X72.269 Y69.721
N16505 X72.939 Y69.269
N16510 X73.634 Y68.855
N16515 X74.35 Y68.481
N16520 X75.087 Y68.149
N16525 X75.841 Y67.857
N16530 X76.609 Y67.607
N16535 X77.391 Y67.4
N16540 X78.182 Y67.236
N16545 X78.981 Y67.117
N16550 X79.786 Y67.041
N16555 X80.594 Y67.01
N16560 X81.402 Y67.024
N16565 X82.208 Y67.084
N16570 X83.009 Y67.188
N16575 X83.804 Y67.336
N16580 X84.589 Y67.526
N16585 X85.363 Y67.759
N16590 X86.124 Y68.033
N16595 X86.868 Y68.349
N16600 X87.594 Y68.704
N16605 X88.3 Y69.097
N16610 X88.983 Y69.529
N16615 X89.642 Y69.998
N16620 X90.274 Y70.501
N16625 X90.879 Y71.036
N16630 X91.455 Y71.603
N16635 X92.001 Y72.199
N16640 X92.515 Y72.823
N16645 X92.995 Y73.474
N16650 X93.44 Y74.148
N16655 X93.849 Y74.845
N16660 X94.22 Y75.563
N16665 X94.553 Y76.3
N16670 X94.846 Y77.053
N16675 X95.099 Y77.821
N16680 X95.312 Y78.601
N16685 X95.483 Y79.39
N16690 X95.614 Y80.188
N16695 X95.701 Y80.991
N16700 X95.746 Y81.798
N16705 X95.749 Y82.607
N16710 X95.707 Y83.414
N16715 X95.621 Y84.218
N16720 X95.493 Y85.015
N16725 X95.322 Y85.806
N16730 X95.11 Y86.585
N16735 X94.857 Y87.353
N16740 X94.564 Y88.106
N16745 X94.231 Y88.843
N16750 X93.859 Y89.56
N16755 X93.45 Y90.257
N16760 X93.003 Y90.931
N16765 X92.521 Y91.579
N16770 X92.005 Y92.201
N16775 X91.456 Y92.795
N16780 X90.878 Y93.359
N16785 X90.271 Y93.893
N16790 X89.636 Y94.394
N16795 X88.976 Y94.86
N16800 X88.293 Y95.292
N16805 X87.588 Y95.686
N16810 X86.862 Y96.043
N16815 X86.119 Y96.36
N16820 X85.359 Y96.637
N16825 X84.587 Y96.875
N16830 X83.803 Y97.072
N16835 X83.01 Y97.228
N16840 X82.21 Y97.343
N16845 X81.405 Y97.415
N16850 X80.597 Y97.446
N16855 X79.789 Y97.435
N16860 X78.983 Y97.381
N16865 X78.18 Y97.284
N16870 X77.384 Y97.146
N16875 X76.596 Y96.968
N16880 X75.817 Y96.75
N16885 X75.051 Y96.492
N16890 X74.299 Y96.196
N16895 X73.563 Y95.862
N16900 X72.845 Y95.491
N16905 X72.148 Y95.083
N16910 X71.472 Y94.639
N16915 X70.821 Y94.16
N16920 X70.195 Y93.649
N16925 X69.596 Y93.106
N16930 X69.026 Y92.534
N16935 X68.484 Y91.934
N16940 X67.974 Y91.307
N16945 X67.495 Y90.656
N16950 X67.05 Y89.981
N16955 X66.64 Y89.285
N16960 X66.266 Y88.568
N16965 X65.93 Y87.833
N16970 X65.632 Y87.082
N16975 X65.373 Y86.316
N16980 X65.153 Y85.538
N16985 X64.972 Y84.751
N16990 X64.83 Y83.955
N16995 X64.728 Y83.153
N17000 X64.666 Y82.347
N17005 X64.645 Y81.539
N17010 X64.665 Y80.731
N17015 X64.726 Y79.925
N17020 X64.829 Y79.124
N17025 X64.972 Y78.328
N17030 X65.156 Y77.541
N17035 X65.378 Y76.764
N17040 X65.638 Y75.999
N17045 X65.937 Y75.248
N17050 X66.272 Y74.513
N17055 X66.644 Y73.795
N17060 X67.051 Y73.097
N17065 X67.493 Y72.42
N17070 X67.97 Y71.767
N17075 X68.479 Y71.14
N17080 X69.019 Y70.538
N17085 X69.589 Y69.965
N17090 X70.186 Y69.42
N17095 X70.809 Y68.906
N17100 X71.458 Y68.424
N17105 X72.129 Y67.974
N17110 X72.823 Y67.559
N17115 X73.536 Y67.178
N17120 X74.268 Y66.835
N17125 X75.016 Y66.53
N17130 X75.779 Y66.263
N17135 X76.554 Y66.035
N17140 X77.34 Y65.845
N17145 X78.134 Y65.695
N17150 X78.935 Y65.584
N17155 X79.74 Y65.513
N17160 X80.548 Y65.483
N17165 X81.356 Y65.492
N17170 X82.162 Y65.543
N17175 X82.965 Y65.634
N17180 X83.763 Y65.766
N17185 X84.553 Y65.937
N17190 X85.333 Y66.147
N17195 X86.102 Y66.396
N17200 X86.858 Y66.681
N17205 X87.6 Y67.003
N17210 X88.325 Y67.361
N17215 X89.031 Y67.753
N17220 X89.717 Y68.18
N17225 X90.382 Y68.64
N17230 X91.023 Y69.132
N17235 X91.639 Y69.656
N17240 X92.229 Y70.208
N17245 X92.792 Y70.788
N17250 X93.326 Y71.394
N17255 X93.832 Y72.025
N17260 X94.306 Y72.679
N17265 X94.749 Y73.355
N17270 X95.16 Y74.052
N17275 X95.536 Y74.767
N17280 X95.878 Y75.499
N17285 X96.183 Y76.248
N17290 X96.451 Y77.01
N17295 X96.683 Y77.785
N17300 X96.877 Y78.569
N17305 X97.034 Y79.362
N17310 X97.153 Y80.161
N17315 X97.234 Y80.966
N17320 X97.276 Y81.773
N17325 X97.28 Y82.581
N17330 X97.244 Y83.388
N17335 X97.169 Y84.193
N17340 X97.054 Y84.993
N17345 X96.899 Y85.786
N17350 X96.707 Y86.571
N17355 X96.477 Y87.346
N17360 X96.21 Y88.109
N17365 X95.906 Y88.858
N17370 X95.567 Y89.592
N17375 X95.194 Y90.309
N17380 X94.786 Y91.006
N17385 X94.345 Y91.684
N17390 X93.871 Y92.339
N17395 X93.365 Y92.969
N17400 X92.83 Y93.574
N17405 X92.266 Y94.153
N17410 X91.674 Y94.704
N17415 X91.058 Y95.227
N17420 X90.417 Y95.719
N17425 X89.754 Y96.181
N17430 X89.069 Y96.611
N17435 X88.365 Y97.007
N17440 X87.642 Y97.369
N17445 X86.903 Y97.696
N17450 X86.149 Y97.987
N17455 X85.381 Y98.24
N17460 X84.603 Y98.456
N17465 X83.814 Y98.636
N17470 X83.019 Y98.778
N17475 X82.217 Y98.882
N17480 X81.412 Y98.949
N17485 X80.604 Y98.977
N17490 X79.796 Y98.967
N17495 X78.989 Y98.92
N17500 X78.185 Y98.833
N17505 X77.387 Y98.709
N17510 X76.595 Y98.546
N17515 X75.812 Y98.346
N17520 X75.039 Y98.111
N17525 X74.278 Y97.839
N17530 X73.53 Y97.533
N17535 X72.797 Y97.193
N17540 X72.08 Y96.818
N17545 X71.382 Y96.411
N17550 X70.704 Y95.971
N17555 X70.047 Y95.5
N17560 X69.414 Y94.998
N17565 X68.805 Y94.467
N17570 X68.221 Y93.908
N17575 X67.664 Y93.322
N17580 X67.134 Y92.712
N17585 X66.633 Y92.078
N17590 X66.161 Y91.421
N17595 X65.72 Y90.744
N17600 X65.31 Y90.047
N17605 X64.934 Y89.332
N17610 X64.591 Y88.601
N17615 X64.282 Y87.853
N17620 X64.01 Y87.092
N17625 X63.773 Y86.32
N17630 X63.573 Y85.537
N17635 X63.408 Y84.746
N17640 X63.279 Y83.948
N17645 X63.187 Y83.145
N17650 X63.131 Y82.338
N17655 X63.112 Y81.53
N17660 X63.13 Y80.722
N17665 X63.186 Y79.916
N17670 X63.279 Y79.113
N17675 X63.41 Y78.316
N17680 X63.578 Y77.525
N17685 X63.782 Y76.743
N17690 X64.022 Y75.971
N17695 X64.296 Y75.211
N17700 X64.605 Y74.464
N17705 X64.947 Y73.732
N17710 X65.323 Y73.016
N17715 X65.73 Y72.318
N17720 X66.169 Y71.639
N17725 X66.639 Y70.982
N17730 X67.139 Y70.347
N17735 X67.669 Y69.736
N17740 X68.226 Y69.151
N17745 X68.809 Y68.592
N17750 X69.418 Y68.059
N17755 X70.049 Y67.555
N17760 X70.703 Y67.08
N17765 X71.378 Y66.635
N17770 X72.072 Y66.221
N17775 X72.785 Y65.84
N17780 X73.514 Y65.491
N17785 X74.258 Y65.177
N17790 X75.017 Y64.898
N17795 X75.788 Y64.654
N17800 X76.569 Y64.447
N17805 X77.359 Y64.275
N17810 X78.155 Y64.139
N17815 X78.957 Y64.039
N17820 X79.763 Y63.976
N17825 X80.571 Y63.949
N17830 X81.379 Y63.958
N17835 X82.186 Y64.005
N17840 X82.99 Y64.088
N17845 X83.789 Y64.209
N17850 X84.582 Y64.367
N17855 X85.366 Y64.56
N17860 X86.142 Y64.789
N17865 X86.906 Y65.053
N17870 X87.657 Y65.35
N17875 X88.395 Y65.681
N17880 X89.117 Y66.044
N17885 X89.822 Y66.438
N17890 X90.51 Y66.864
N17895 X91.177 Y67.319
N17900 X91.823 Y67.804
N17905 X92.447 Y68.319
N17910 X93.047 Y68.86
N17915 X93.622 Y69.428
N17920 X94.171 Y70.021
N17925 X94.694 Y70.637
N17930 X95.19 Y71.276
N17935 X95.658 Y71.935
N17940 X96.097 Y72.614
N17945 X96.505 Y73.311
N17950 X96.883 Y74.025
N17955 X97.229 Y74.756
N17960 X97.543 Y75.501
N17965 X97.822 Y76.259
N17970 X98.067 Y77.029
N17975 X98.278 Y77.809
N17980 X98.455 Y78.598
N17985 X98.597 Y79.394
N17990 X98.704 Y80.195
N17995 X98.776 Y81.
N18000 X98.813 Y81.807
N18005 X98.815 Y82.616
N18010 X98.781 Y83.423
N18015 X98.711 Y84.228
N18020 X98.605 Y85.03
N18025 X98.463 Y85.825
N18030 X98.285 Y86.613
N18035 X98.071 Y87.393
N18040 X97.824 Y88.162
N18045 X97.543 Y88.92
N18050 X97.229 Y89.665
N18055 X96.883 Y90.395
N18060 X96.505 Y91.11
N18065 X96.096 Y91.807
N18070 X95.657 Y92.486
N18075 X95.188 Y93.144
N18080 X94.69 Y93.781
N18085 X94.164 Y94.394
N18090 X93.611 Y94.983
N18095 X93.032 Y95.547
N18100 X92.429 Y96.086
N18105 X91.803 Y96.597
N18110 X91.156 Y97.081
N18115 X90.488 Y97.536
N18120 X89.801 Y97.962
N18125 X89.096 Y98.358
N18130 X88.375 Y98.723
N18135 X87.638 Y99.055
N18140 X86.888 Y99.354
N18145 X86.124 Y99.619
N18150 X85.35 Y99.85
N18155 X84.566 Y100.047
N18160 X83.774 Y100.209
N18165 X82.976 Y100.338
N18170 X82.173 Y100.431
N18175 X81.367 Y100.49
N18180 X80.559 Y100.514
N18185 X79.751 Y100.504
N18190 X78.944 Y100.458
N18195 X78.14 Y100.378
N18200 X77.34 Y100.263
N18205 X76.546 Y100.112
N18210 X75.759 Y99.926
N18215 X74.981 Y99.707
N18220 X74.213 Y99.455
N18225 X73.457 Y99.17
N18230 X72.713 Y98.853
N18235 X71.984 Y98.505
N18240 X71.27 Y98.127
N18245 X70.573 Y97.718
N18250 X69.893 Y97.28
N18255 X69.234 Y96.813
N18260 X68.595 Y96.318
N18265 X67.978 Y95.795
N18270 X67.385 Y95.246
N18275 X66.816 Y94.672
N18280 X66.272 Y94.074
N18285 X65.754 Y93.454
N18290 X65.262 Y92.813
N18295 X64.798 Y92.151
N18300 X64.361 Y91.471
N18305 X63.954 Y90.773
N18310 X63.577 Y90.058
N18315 X63.23 Y89.328
N18320 X62.915 Y88.583
N18325 X62.633 Y87.826
N18330 X62.384 Y87.057
N18335 X62.168 Y86.278
N18340 X61.985 Y85.491
N18345 X61.836 Y84.697
N18350 X61.72 Y83.897
N18355 X61.638 Y83.093
N18360 X61.589 Y82.286
N18365 X61.574 Y81.478
N18370 X61.592 Y80.67
N18375 X61.645 Y79.863
N18380 X61.733 Y79.06
N18385 X61.854 Y78.261
N18390 X62.011 Y77.468
N18395 X62.201 Y76.682
N18400 X62.425 Y75.906
N18405 X62.681 Y75.139
N18410 X62.968 Y74.384
N18415 X63.287 Y73.641
N18420 X63.637 Y72.912
N18425 X64.016 Y72.199
N18430 X64.425 Y71.502
N18435 X64.863 Y70.823
N18440 X65.33 Y70.162
N18445 X65.824 Y69.523
N18450 X66.345 Y68.905
N18455 X66.893 Y68.311
N18460 X67.465 Y67.74
N18465 X68.061 Y67.194
N18470 X68.679 Y66.673
N18475 X69.319 Y66.179
N18480 X69.978 Y65.712
N18485 X70.656 Y65.272
N18490 X71.352 Y64.861
N18495 X72.065 Y64.479
N18500 X72.792 Y64.128
N18505 X73.535 Y63.808
N18510 X74.29 Y63.52
N18515 X75.057 Y63.265
N18520 X75.834 Y63.043
N18525 X76.62 Y62.855
N18530 X77.413 Y62.699
N18535 X78.212 Y62.577
N18540 X79.015 Y62.488
N18545 X79.822 Y62.432
N18550 X80.63 Y62.409
N18555 X81.438 Y62.42
N18560 X82.245 Y62.465
N18565 X83.049 Y62.544
N18570 X83.849 Y62.657
N18575 X84.644 Y62.804
N18580 X85.432 Y62.984
N18585 X86.211 Y63.198
N18590 X86.981 Y63.445
N18595 X87.74 Y63.722
N18600 X88.487 Y64.031
N18605 X89.221 Y64.369
N18610 X89.941 Y64.738
N18615 X90.644 Y65.135
N18620 X91.331 Y65.561
N18625 X92. Y66.014
N18630 X92.65 Y66.495
N18635 X93.28 Y67.002
N18640 X93.887 Y67.535
N18645 X94.471 Y68.093
N18650 X95.033 Y68.675
N18655 X95.57 Y69.279
N18660 X96.082 Y69.904
N18665 X96.569 Y70.549
N18670 X97.03 Y71.213
N18675 X97.464 Y71.895
N18680 X97.87 Y72.594
N18685 X98.248 Y73.308
N18690 X98.597 Y74.038
N18695 X98.915 Y74.78
N18700 X99.203 Y75.535
N18705 X99.459 Y76.302
N18710 X99.683 Y77.079
N18715 X99.876 Y77.864
N18720 X100.036 Y78.656
N18725 X100.164 Y79.454
N18730 X100.26 Y80.256
N18735 X100.324 Y81.062
N18740 X100.356 Y81.87
N18745 X100.355 Y82.678
N18750 X100.321 Y83.485
N18755 X100.254 Y84.291
N18760 X100.154 Y85.093
N18765 X100.021 Y85.89
N18770 X99.855 Y86.681
N18775 X99.655 Y87.464
N18780 X99.424 Y88.239
N18785 X99.161 Y89.003
N18790 X98.867 Y89.756
N18795 X98.544 Y90.497
N18800 X98.191 Y91.224
N18805 X97.808 Y91.936
N18810 X97.398 Y92.632
N18815 X96.959 Y93.311
N18820 X96.494 Y93.971
N18825 X96.001 Y94.612
N18830 X95.482 Y95.232
N18835 X94.938 Y95.83
N18840 X94.37 Y96.404
N18845 X93.778 Y96.955
N18850 X93.165 Y97.481
N18855 X92.531 Y97.983
N18860 X91.877 Y98.458
N18865 X91.206 Y98.908
N18870 X90.516 Y99.33
N18875 X89.811 Y99.724
N18880 X89.09 Y100.089
N18885 X88.355 Y100.425
N18890 X87.607 Y100.731
N18895 X86.846 Y101.006
N18900 X86.076 Y101.248
N18905 X85.295 Y101.459
N18910 X84.507 Y101.638
N18915 X83.712 Y101.786
N18920 X82.912 Y101.901
N18925 X82.109 Y101.985
N18930 X81.302 Y102.037
N18935 X80.494 Y102.056
N18940 X79.686 Y102.044
N18945 X78.879 Y102.
N18950 X78.074 Y101.924
N18955 X77.273 Y101.815
N18960 X76.478 Y101.674
N18965 X75.688 Y101.5
N18970 X74.907 Y101.294
N18975 X74.134 Y101.058
N18980 X73.371 Y100.791
N18985 X72.619 Y100.494
N18990 X71.88 Y100.168
N18995 X71.153 Y99.813
N19000 X70.442 Y99.43
N19005 X69.745 Y99.02
N19010 X69.066 Y98.582
N19015 X68.404 Y98.118
N19020 X67.762 Y97.628
N19025 X67.139 Y97.112
N19030 X66.538 Y96.571
N19035 X65.96 Y96.007
N19040 X65.404 Y95.42
N19045 X64.872 Y94.812
N19050 X64.364 Y94.183
N19055 X63.88 Y93.536
N19060 X63.422 Y92.87
N19065 X62.991 Y92.186
N19070 X62.586 Y91.487
N19075 X62.209 Y90.772
N19080 X61.86 Y90.043
N19085 X61.54 Y89.301
N19090 X61.25 Y88.546
N19095 X60.991 Y87.781
N19100 X60.762 Y87.005
N19105 X60.565 Y86.222
N19110 X60.399 Y85.431
N19115 X60.263 Y84.634
N19120 X60.158 Y83.833
N19125 X60.085 Y83.028
N19130 X60.042 Y82.221
N19135 X60.031 Y81.412
N19140 X60.051 Y80.604
N19145 X60.102 Y79.798
N19150 X60.185 Y78.994
N19155 X60.299 Y78.194
N19160 X60.446 Y77.399
N19165 X60.625 Y76.611
N19170 X60.834 Y75.83
N19175 X61.075 Y75.059
N19180 X61.345 Y74.297
N19185 X61.644 Y73.546
N19190 X61.972 Y72.807
N19195 X62.328 Y72.082
N19200 X62.712 Y71.37
N19205 X63.123 Y70.674
N19210 X63.56 Y69.995
N19215 X64.024 Y69.333
N19220 X64.513 Y68.689
N19225 X65.028 Y68.066
N19230 X65.567 Y67.464
N19235 X66.13 Y66.884
N19240 X66.715 Y66.327
N19245 X67.322 Y65.792
N19250 X67.948 Y65.282
N19255 X68.594 Y64.796
N19260 X69.258 Y64.336
N19265 X69.94 Y63.901
N19270 X70.637 Y63.492
N19275 X71.35 Y63.111
N19280 X72.077 Y62.758
N19285 X72.817 Y62.433
N19290 X73.569 Y62.138
N19295 X74.333 Y61.874
N19300 X75.107 Y61.64
N19305 X75.889 Y61.437
N19310 X76.679 Y61.265
N19315 X77.475 Y61.124
N19320 X78.275 Y61.013
N19325 X79.08 Y60.933
N19330 X79.886 Y60.884
N19335 X80.694 Y60.865
N19340 X81.502 Y60.878
N19345 X82.309 Y60.922
N19350 X83.114 Y60.997
N19355 X83.915 Y61.103
N19360 X84.712 Y61.241
N19365 X85.502 Y61.411
N19370 X86.285 Y61.612
N19375 X87.059 Y61.843
N19380 X87.824 Y62.104
N19385 X88.579 Y62.393
N19390 X89.322 Y62.711
N19395 X90.053 Y63.057
N19400 X90.77 Y63.43
N19405 X91.472 Y63.83
N19410 X92.159 Y64.256
N19415 X92.829 Y64.708
N19420 X93.481 Y65.185
N19425 X94.115 Y65.686
N19430 X94.729 Y66.212
N19435 X95.322 Y66.762
N19440 X95.893 Y67.334
N19445 X96.442 Y67.927
N19450 X96.968 Y68.54
N19455 X97.471 Y69.173
N19460 X97.95 Y69.824
N19465 X98.405 Y70.492
N19470 X98.835 Y71.176
N19475 X99.239 Y71.876
N19480 X99.617 Y72.591
N19485 X99.968 Y73.319
N19490 X100.291 Y74.06
N19495 X100.586 Y74.812
N19500 X100.851 Y75.576
N19505 X101.087 Y76.349
N19510 X101.293 Y77.13
N19515 X101.469 Y77.919
N19520 X101.615 Y78.714
N19525 X101.732 Y79.514
N19530 X101.818 Y80.317
N19535 X101.875 Y81.124
N19540 X101.902 Y81.931
N19545 X101.899 Y82.74
N19550 X101.865 Y83.547
N19555 X101.801 Y84.353
N19560 X101.707 Y85.156
N19565 X101.581 Y85.954
N19570 X101.425 Y86.747
N19575 X101.238 Y87.533
N19580 X101.02 Y88.312
N19585 X100.773 Y89.081
N19590 X100.497 Y89.841
N19595 X100.193 Y90.59
N19600 X99.861 Y91.327
N19605 X99.502 Y92.051
N19610 X99.117 Y92.761
N19615 X98.704 Y93.456
N19620 X98.267 Y94.136
N19625 X97.804 Y94.798
N19630 X97.316 Y95.443
N19635 X96.804 Y96.068
N19640 X96.267 Y96.673
N19645 X95.708 Y97.256
N19650 X95.127 Y97.817
N19655 X94.525 Y98.357
N19660 X93.903 Y98.873
N19665 X93.262 Y99.366
N19670 X92.604 Y99.835
N19675 X91.929 Y100.279
N19680 X91.237 Y100.698
N19685 X90.531 Y101.091
N19690 X89.811 Y101.458
N19695 X89.077 Y101.797
N19700 X88.331 Y102.108
N19705 X87.574 Y102.391
N19710 X86.807 Y102.644
N19715 X86.03 Y102.867
N19720 X85.245 Y103.061
N19725 X84.454 Y103.225
N19730 X83.657 Y103.359
N19735 X82.855 Y103.465
N19740 X82.051 Y103.54
N19745 X81.244 Y103.586
N19750 X80.436 Y103.602
N19755 X79.628 Y103.589
N19760 X78.821 Y103.546
N19765 X78.016 Y103.473
N19770 X77.214 Y103.371
N19775 X76.417 Y103.238
N19780 X75.625 Y103.075
N19785 X74.84 Y102.881
N19790 X74.063 Y102.659
N19795 X73.295 Y102.408
N19800 X72.537 Y102.128
N19805 X71.789 Y101.822
N19810 X71.053 Y101.488
N19815 X70.329 Y101.128
N19820 X69.619 Y100.742
N19825 X68.924 Y100.33
N19830 X68.244 Y99.893
N19835 X67.58 Y99.431
N19840 X66.934 Y98.946
N19845 X66.307 Y98.436
N19850 X65.699 Y97.903
N19855 X65.112 Y97.348
N19860 X64.546 Y96.771
N19865 X64.002 Y96.173
N19870 X63.479 Y95.557
N19875 X62.98 Y94.921
N19880 X62.503 Y94.268
N19885 X62.051 Y93.599
N19890 X61.623 Y92.913
N19895 X61.22 Y92.213
N19900 X60.842 Y91.498
N19905 X60.491 Y90.77
N19910 X60.166 Y90.03
N19915 X59.869 Y89.278
N19920 X59.601 Y88.516
N19925 X59.362 Y87.744
N19930 X59.151 Y86.963
N19935 X58.97 Y86.176
N19940 X58.817 Y85.382
N19945 X58.692 Y84.584
N19950 X58.597 Y83.781
N19955 X58.53 Y82.975
N19960 X58.493 Y82.168
N19965 X58.484 Y81.36
N19970 X58.504 Y80.552
N19975 X58.554 Y79.745
N19980 X58.632 Y78.941
N19985 X58.74 Y78.14
N19990 X58.878 Y77.343
N19995 X59.046 Y76.553
N20000 X59.244 Y75.769
N20005 X59.47 Y74.993
N20010 X59.724 Y74.226
N20015 X60.005 Y73.468
N20020 X60.314 Y72.721
N20025 X60.649 Y71.986
N20030 X61.01 Y71.263
N20035 X61.397 Y70.553
N20040 X61.809 Y69.857
N20045 X62.245 Y69.177
N20050 X62.706 Y68.513
N20055 X63.191 Y67.867
N20060 X63.699 Y67.238
N20065 X64.231 Y66.629
N20070 X64.785 Y66.041
N20075 X65.36 Y65.474
N20080 X65.956 Y64.927
N20085 X66.571 Y64.403
N20090 X67.205 Y63.901
N20095 X67.856 Y63.422
N20100 X68.523 Y62.967
N20105 X69.207 Y62.535
N20110 X69.905 Y62.129
N20115 X70.618 Y61.747
N20120 X71.344 Y61.392
N20125 X72.082 Y61.063
N20130 X72.832 Y60.761
N20135 X73.592 Y60.488
N20140 X74.363 Y60.243
N20145 X75.142 Y60.028
N20150 X75.928 Y59.84
N20155 X76.721 Y59.682
N20160 X77.518 Y59.552
N20165 X78.32 Y59.45
N20170 X79.125 Y59.377
N20175 X79.932 Y59.333
N20180 X80.74 Y59.318
N20185 X81.548 Y59.331
N20190 X82.355 Y59.373
N20195 X83.16 Y59.445
N20200 X83.962 Y59.545
N20205 X84.76 Y59.675
N20210 X85.553 Y59.834
N20215 X86.338 Y60.023
N20220 X87.117 Y60.24
N20225 X87.887 Y60.485
N20230 X88.648 Y60.758
N20235 X89.399 Y61.057
N20240 X90.139 Y61.382
N20245 X90.867 Y61.733
N20250 X91.582 Y62.11
N20255 X92.283 Y62.511
N20260 X92.97 Y62.937
N20265 X93.642 Y63.387
N20270 X94.297 Y63.86
N20275 X94.935 Y64.356
N20280 X95.555 Y64.875
N20285 X96.155 Y65.416
N20290 X96.735 Y65.979
N20295 X97.295 Y66.562
N20300 X97.834 Y67.164
N20305 X98.351 Y67.785
N20310 X98.847 Y68.424
N20315 X99.32 Y69.079
N20320 X99.77 Y69.75
N20325 X100.197 Y70.436
N20330 X100.6 Y71.137
N20335 X100.979 Y71.851
N20340 X101.332 Y72.578
N20345 X101.66 Y73.317
N20350 X101.962 Y74.067
N20355 X102.236 Y74.827
N20360 X102.482 Y75.597
N20365 X102.7 Y76.375
N20370 X102.891 Y77.16
N20375 X103.054 Y77.952
N20380 X103.189 Y78.749
N20385 X103.297 Y79.55
N20390 X103.376 Y80.354
N20395 X103.428 Y81.161
N20400 X103.452 Y81.969
N20405 X103.447 Y82.777
N20410 X103.415 Y83.584
N20415 X103.354 Y84.39
N20420 X103.265 Y85.194
N20425 X103.147 Y85.993
N20430 X103. Y86.788
N20435 X102.824 Y87.577
N20440 X102.62 Y88.359
N20445 X102.387 Y89.133
N20450 X102.128 Y89.899
N20455 X101.842 Y90.655
N20460 X101.53 Y91.4
N20465 X101.192 Y92.134
N20470 X100.829 Y92.856
N20475 X100.441 Y93.565
N20480 X100.028 Y94.26
N20485 X99.592 Y94.941
N20490 X99.132 Y95.605
N20495 X98.649 Y96.253
N20500 X98.143 Y96.884
N20505 X97.614 Y97.495
N20510 X97.064 Y98.087
N20515 X96.492 Y98.658
N20520 X95.901 Y99.209
N20525 X95.291 Y99.739
N20530 X94.662 Y100.247
N20535 X94.017 Y100.734
N20540 X93.355 Y101.198
N20545 X92.677 Y101.638
N20550 X91.985 Y102.055
N20555 X91.279 Y102.448
N20560 X90.559 Y102.817
N20565 X89.828 Y103.16
N20570 X89.084 Y103.477
N20575 X88.33 Y103.767
N20580 X87.566 Y104.03
N20585 X86.792 Y104.265
N20590 X86.011 Y104.472
N20595 X85.223 Y104.652
N20600 X84.429 Y104.804
N20605 X83.631 Y104.929
N20610 X82.828 Y105.026
N20615 X82.023 Y105.096
N20620 X81.216 Y105.138
N20625 X80.408 Y105.152
N20630 X79.6 Y105.139
N20635 X78.792 Y105.098
N20640 X77.987 Y105.029
N20645 X77.185 Y104.933
N20650 X76.386 Y104.808
N20655 X75.593 Y104.655
N20660 X74.805 Y104.473
N20665 X74.024 Y104.264
N20670 X73.251 Y104.028
N20675 X72.487 Y103.766
N20680 X71.732 Y103.477
N20685 X70.987 Y103.163
N20690 X70.254 Y102.824
N20695 X69.532 Y102.46
N20700 X68.823 Y102.072
N20705 X68.127 Y101.66
N20710 X67.446 Y101.225
N20715 X66.781 Y100.766
N20720 X66.131 Y100.286
N20725 X65.499 Y99.782
N20730 X64.885 Y99.257
N20735 X64.289 Y98.71
N20740 X63.714 Y98.143
N20745 X63.158 Y97.556
